; oh_ein_Laser.py generated
; lasercut testfile for
; zigerlaser
G00 G17 G40 G21
G90
M3
M106

; 10% power, speed 50
G0 X40 Y10
G2 I3.5 S1.0 F50

; 10% power, speed 100
G0 X40 Y20
G2 I3.5 S1.0 F100

; 10% power, speed 150
G0 X40 Y30
G2 I3.5 S1.0 F150

; 10% power, speed 200
G0 X40 Y40
G2 I3.5 S1.0 F200

; 10% power, speed 300
G0 X40 Y50
G2 I3.5 S1.0 F300

; 10% power, speed 400
G0 X40 Y60
G2 I3.5 S1.0 F400

; 10% power, speed 500
G0 X40 Y70
G2 I3.5 S1.0 F500

; 10% power, speed 600
G0 X40 Y80
G2 I3.5 S1.0 F600

; 10% power, speed 800
G0 X40 Y90
G2 I3.5 S1.0 F800

; 10% power, speed 1000
G0 X40 Y100
G2 I3.5 S1.0 F1000

; 10% power, speed 2000
G0 X40 Y110
G2 I3.5 S1.0 F2000

; 20% power, speed 50
G0 X50 Y10
G2 I3.5 S2.0 F50

; 20% power, speed 100
G0 X50 Y20
G2 I3.5 S2.0 F100

; 20% power, speed 150
G0 X50 Y30
G2 I3.5 S2.0 F150

; 20% power, speed 200
G0 X50 Y40
G2 I3.5 S2.0 F200

; 20% power, speed 300
G0 X50 Y50
G2 I3.5 S2.0 F300

; 20% power, speed 400
G0 X50 Y60
G2 I3.5 S2.0 F400

; 20% power, speed 500
G0 X50 Y70
G2 I3.5 S2.0 F500

; 20% power, speed 600
G0 X50 Y80
G2 I3.5 S2.0 F600

; 20% power, speed 800
G0 X50 Y90
G2 I3.5 S2.0 F800

; 20% power, speed 1000
G0 X50 Y100
G2 I3.5 S2.0 F1000

; 20% power, speed 2000
G0 X50 Y110
G2 I3.5 S2.0 F2000

; 30% power, speed 50
G0 X60 Y10
G2 I3.5 S3.0 F50

; 30% power, speed 100
G0 X60 Y20
G2 I3.5 S3.0 F100

; 30% power, speed 150
G0 X60 Y30
G2 I3.5 S3.0 F150

; 30% power, speed 200
G0 X60 Y40
G2 I3.5 S3.0 F200

; 30% power, speed 300
G0 X60 Y50
G2 I3.5 S3.0 F300

; 30% power, speed 400
G0 X60 Y60
G2 I3.5 S3.0 F400

; 30% power, speed 500
G0 X60 Y70
G2 I3.5 S3.0 F500

; 30% power, speed 600
G0 X60 Y80
G2 I3.5 S3.0 F600

; 30% power, speed 800
G0 X60 Y90
G2 I3.5 S3.0 F800

; 30% power, speed 1000
G0 X60 Y100
G2 I3.5 S3.0 F1000

; 30% power, speed 2000
G0 X60 Y110
G2 I3.5 S3.0 F2000

; 40% power, speed 50
G0 X70 Y10
G2 I3.5 S4.0 F50

; 40% power, speed 100
G0 X70 Y20
G2 I3.5 S4.0 F100

; 40% power, speed 150
G0 X70 Y30
G2 I3.5 S4.0 F150

; 40% power, speed 200
G0 X70 Y40
G2 I3.5 S4.0 F200

; 40% power, speed 300
G0 X70 Y50
G2 I3.5 S4.0 F300

; 40% power, speed 400
G0 X70 Y60
G2 I3.5 S4.0 F400

; 40% power, speed 500
G0 X70 Y70
G2 I3.5 S4.0 F500

; 40% power, speed 600
G0 X70 Y80
G2 I3.5 S4.0 F600

; 40% power, speed 800
G0 X70 Y90
G2 I3.5 S4.0 F800

; 40% power, speed 1000
G0 X70 Y100
G2 I3.5 S4.0 F1000

; 40% power, speed 2000
G0 X70 Y110
G2 I3.5 S4.0 F2000

; 50% power, speed 50
G0 X80 Y10
G2 I3.5 S5.0 F50

; 50% power, speed 100
G0 X80 Y20
G2 I3.5 S5.0 F100

; 50% power, speed 150
G0 X80 Y30
G2 I3.5 S5.0 F150

; 50% power, speed 200
G0 X80 Y40
G2 I3.5 S5.0 F200

; 50% power, speed 300
G0 X80 Y50
G2 I3.5 S5.0 F300

; 50% power, speed 400
G0 X80 Y60
G2 I3.5 S5.0 F400

; 50% power, speed 500
G0 X80 Y70
G2 I3.5 S5.0 F500

; 50% power, speed 600
G0 X80 Y80
G2 I3.5 S5.0 F600

; 50% power, speed 800
G0 X80 Y90
G2 I3.5 S5.0 F800

; 50% power, speed 1000
G0 X80 Y100
G2 I3.5 S5.0 F1000

; 50% power, speed 2000
G0 X80 Y110
G2 I3.5 S5.0 F2000

; 60% power, speed 50
G0 X90 Y10
G2 I3.5 S6.0 F50

; 60% power, speed 100
G0 X90 Y20
G2 I3.5 S6.0 F100

; 60% power, speed 150
G0 X90 Y30
G2 I3.5 S6.0 F150

; 60% power, speed 200
G0 X90 Y40
G2 I3.5 S6.0 F200

; 60% power, speed 300
G0 X90 Y50
G2 I3.5 S6.0 F300

; 60% power, speed 400
G0 X90 Y60
G2 I3.5 S6.0 F400

; 60% power, speed 500
G0 X90 Y70
G2 I3.5 S6.0 F500

; 60% power, speed 600
G0 X90 Y80
G2 I3.5 S6.0 F600

; 60% power, speed 800
G0 X90 Y90
G2 I3.5 S6.0 F800

; 60% power, speed 1000
G0 X90 Y100
G2 I3.5 S6.0 F1000

; 60% power, speed 2000
G0 X90 Y110
G2 I3.5 S6.0 F2000

; 70% power, speed 50
G0 X100 Y10
G2 I3.5 S7.0 F50

; 70% power, speed 100
G0 X100 Y20
G2 I3.5 S7.0 F100

; 70% power, speed 150
G0 X100 Y30
G2 I3.5 S7.0 F150

; 70% power, speed 200
G0 X100 Y40
G2 I3.5 S7.0 F200

; 70% power, speed 300
G0 X100 Y50
G2 I3.5 S7.0 F300

; 70% power, speed 400
G0 X100 Y60
G2 I3.5 S7.0 F400

; 70% power, speed 500
G0 X100 Y70
G2 I3.5 S7.0 F500

; 70% power, speed 600
G0 X100 Y80
G2 I3.5 S7.0 F600

; 70% power, speed 800
G0 X100 Y90
G2 I3.5 S7.0 F800

; 70% power, speed 1000
G0 X100 Y100
G2 I3.5 S7.0 F1000

; 70% power, speed 2000
G0 X100 Y110
G2 I3.5 S7.0 F2000



; Labels
; Cut @ 5000 mm/min, 70% power
M106
G0X4.65Y1.01
; Layer Engrave
G1X-0.08Y0.3S0.7F5000
G1X0.71Y0.08
G1X0.07Y-0.19
G1X0.08Y-0.17
G1X0.11Y-0.14
G1X0.14Y-0.11
G1X0.15Y-0.09
G1X0.18Y-0.06
G1X0.19Y-0.04
G1X0.22Y-0.01
G1X0.27Y0.02
G1X0.24Y0.06
G1X0.2Y0.11
G1X0.18Y0.15
G1X0.14Y0.18
G1X0.1Y0.22
G1X0.06Y0.25
G1X0.02Y0.29
G1X-0.02Y0.24
G1X-0.06Y0.23
G1X-0.1Y0.19
G1X-0.14Y0.18
G1X-0.18Y0.14
G1X-0.2Y0.1
G1X-0.23Y0.06
G1X-0.26Y0.02
G1X-0.28Y-0.03
G1X-0.25Y-0.06
G1X-0.25Y-0.12
G1X-0.25Y-0.19
G1X-0.68
G1X0.18Y2.96
G1X3.13
G1Y-0.59
G1X-2.49
G1X-0.1Y-1.75
G1X0.24Y0.15
G1X0.27Y0.11
G1X0.3Y0.07
G1X0.32Y0.02
G1X0.39Y-0.03
G1X0.34Y-0.09
G1X0.31Y-0.15
G1X0.26Y-0.21
G1X0.21Y-0.25
G1X0.15Y-0.29
G1X0.09Y-0.33
G1X0.03Y-0.37
G1X-0.03Y-0.41
G1X-0.1Y-0.37
G1X-0.16Y-0.32
G1X-0.23Y-0.27
G1X-0.28Y-0.22
G1X-0.33Y-0.15
G1X-0.39Y-0.1
G1X-0.43Y-0.03
G1X-0.37Y0.02
G1X-0.33Y0.06
G1X-0.29Y0.11
G1X-0.25Y0.15
G1X-0.22Y0.18
G1X-0.17Y0.23
G1X-0.13Y0.26
G0X5.39Y0.42
; Layer Engrave
G1X0.13Y-0.31
G1X0.16Y-0.24
G1X0.21Y-0.17
G1X0.25Y-0.1
G1X0.29Y-0.03
G1X0.29Y0.03
G1X0.25Y0.1
G1X0.2Y0.18
G1X0.17Y0.24
G1X0.13Y0.31
G1X0.09Y0.39
G1X0.05Y0.47
G1X0.02Y0.53
G1X-0.02Y0.56
G1X-0.05Y0.47
G1X-0.09Y0.39
G1X-0.12Y0.31
G1X-0.16Y0.23
G1X-0.2Y0.17
G1X-0.25Y0.1
G1X-0.3Y0.04
G1X-0.3Y-0.04
G1X-0.25Y-0.1
G1X-0.21Y-0.16
G1X-0.17Y-0.23
G1X-0.12Y-0.31
G1X-0.09Y-0.39
G1X-0.05Y-0.48
G1X-0.02Y-0.56
G1X0.02Y-0.54
G1X0.05Y-0.47
G1X0.09Y-0.39
G0X-0.68Y-0.07
; Layer Engrave
G1X-0.07Y0.25
G1X-0.05Y0.28
G1X-0.04Y0.29
G1X-0.02Y0.32
G1X-0.01Y0.33
G1X0.01Y0.35
G1X0.02Y0.32
G1X0.03Y0.3
G1X0.05Y0.27
G1X0.07Y0.26
G1X0.08Y0.23
G1X0.09Y0.21
G1X0.11Y0.19
G1X0.13Y0.16
G1X0.14Y0.15
G1X0.15Y0.12
G1X0.18Y0.1
G1X0.19Y0.08
G1X0.21Y0.05
G1X0.22Y0.03
G1X0.24Y0.02
G1X0.24Y-0.02
G1X0.22Y-0.03
G1X0.2Y-0.06
G1X0.19Y-0.07
G1X0.17Y-0.1
G1X0.16Y-0.13
G1X0.14Y-0.14
G1X0.12Y-0.17
G1X0.11Y-0.19
G1X0.09Y-0.21
G1X0.08Y-0.23
G1X0.07Y-0.26
G1X0.05Y-0.27
G1X0.03Y-0.3
G1X0.03Y-0.32
G1Y-0.34
G1X-0.01Y-0.33
G1X-0.02Y-0.32
G1X-0.04Y-0.29
G1X-0.05Y-0.27
G1X-0.07Y-0.26
G1X-0.08Y-0.23
G1X-0.1Y-0.21
G1X-0.11Y-0.19
G1X-0.13Y-0.17
G1X-0.15Y-0.15
G1X-0.15Y-0.13
G1X-0.18Y-0.1
G1X-0.18Y-0.08
G1X-0.2Y-0.05
G1X-0.22Y-0.04
G1X-0.23Y-0.01
G1X-0.23Y0.01
G1X-0.21Y0.04
G1X-0.2Y0.05
G1X-0.19Y0.08
G1X-0.17Y0.1
G1X-0.16Y0.13
G1X-0.14Y0.14
G1X-0.12Y0.17
G1X-0.12Y0.19
G1X-0.09Y0.22
G1X-0.08Y0.23
G0X-3.5Y8.72
; Layer Engrave
G1X-3.45
G1Y0.6
G1X1.4
G1Y4.23
G1X-1.24Y-0.89
G1Y0.67
G1X1.3Y0.89
G1X0.65
G1Y-4.9
G1X1.34
G1Y-0.6
G0X2.02Y0.8
; Layer Engrave
G1X0.21Y-0.17
G1X0.25Y-0.1
G1X0.29Y-0.03
G1X0.29Y0.03
G1X0.25Y0.1
G1X0.2Y0.18
G1X0.17Y0.24
G1X0.13Y0.31
G1X0.09Y0.39
G1X0.05Y0.47
G1X0.02Y0.53
G1X-0.02Y0.56
G1X-0.05Y0.47
G1X-0.09Y0.39
G1X-0.12Y0.31
G1X-0.16Y0.23
G1X-0.2Y0.17
G1X-0.25Y0.1
G1X-0.29Y0.03
G1X-0.31Y-0.03
G1X-0.25Y-0.1
G1X-0.21Y-0.16
G1X-0.17Y-0.23
G1X-0.12Y-0.31
G1X-0.09Y-0.39
G1X-0.05Y-0.48
G1X-0.02Y-0.56
G1X0.02Y-0.54
G1X0.05Y-0.47
G1X0.09Y-0.39
G1X0.13Y-0.31
G1X0.16Y-0.24
G0X-0.68Y-0.16
; Layer Engrave
G1X-0.12Y0.19
G1X-0.09Y0.22
G1X-0.08Y0.23
G1X-0.07Y0.25
G1X-0.05Y0.28
G1X-0.04Y0.29
G1X-0.02Y0.32
G1X-0.01Y0.33
G1X0.01Y0.35
G1X0.02Y0.32
G1X0.03Y0.3
G1X0.06Y0.27
G1X0.06Y0.26
G1X0.08Y0.23
G1X0.09Y0.21
G1X0.11Y0.19
G1X0.13Y0.16
G1X0.14Y0.15
G1X0.16Y0.12
G1X0.17Y0.1
G1X0.19Y0.08
G1X0.21Y0.05
G1X0.22Y0.03
G1X0.25Y0.02
G1X0.23Y-0.02
G1X0.22Y-0.03
G1X0.2Y-0.06
G1X0.19Y-0.07
G1X0.17Y-0.1
G1X0.16Y-0.13
G1X0.14Y-0.14
G1X0.12Y-0.17
G1X0.11Y-0.19
G1X0.09Y-0.21
G1X0.08Y-0.23
G1X0.07Y-0.26
G1X0.05Y-0.27
G1X0.03Y-0.3
G1X0.03Y-0.32
G1Y-0.34
G1Y-0.33
G1X-0.03Y-0.32
G1X-0.04Y-0.29
G1X-0.05Y-0.27
G1X-0.07Y-0.26
G1X-0.08Y-0.23
G1X-0.1Y-0.21
G1X-0.11Y-0.19
G1X-0.13Y-0.17
G1X-0.15Y-0.15
G1X-0.15Y-0.13
G1X-0.17Y-0.1
G1X-0.19Y-0.08
G1X-0.2Y-0.05
G1X-0.22Y-0.04
G1X-0.23Y-0.01
G1X-0.23Y0.01
G1X-0.21Y0.04
G1X-0.2Y0.05
G1X-0.19Y0.08
G1X-0.17Y0.1
G1X-0.16Y0.13
G1X-0.14Y0.14
G1X-0.12Y0.17
G0X5Y0.71
; Layer Engrave
G1X0.13Y-0.31
G1X0.16Y-0.24
G1X0.21Y-0.17
G1X0.25Y-0.1
G1X0.29Y-0.03
G1X0.29Y0.03
G1X0.25Y0.1
G1X0.2Y0.18
G1X0.17Y0.24
G1X0.13Y0.31
G1X0.09Y0.39
G1X0.05Y0.47
G1X0.02Y0.53
G1X-0.02Y0.56
G1X-0.05Y0.47
G1X-0.09Y0.39
G1X-0.12Y0.31
G1X-0.16Y0.23
G1X-0.2Y0.17
G1X-0.25Y0.1
G1X-0.3Y0.03
G1X-0.3Y-0.03
G1X-0.25Y-0.1
G1X-0.21Y-0.16
G1X-0.17Y-0.23
G1X-0.12Y-0.31
G1X-0.09Y-0.39
G1X-0.05Y-0.48
G1X-0.02Y-0.56
G1X0.02Y-0.54
G1X0.05Y-0.47
G1X0.09Y-0.39
G0X-0.69Y-0.07
; Layer Engrave
G1X-0.06Y0.25
G1X-0.05Y0.28
G1X-0.04Y0.29
G1X-0.02Y0.32
G1X-0.01Y0.33
G1X0.01Y0.35
G1X0.02Y0.32
G1X0.03Y0.3
G1X0.05Y0.27
G1X0.07Y0.26
G1X0.08Y0.23
G1X0.09Y0.21
G1X0.11Y0.19
G1X0.13Y0.16
G1X0.14Y0.15
G1X0.15Y0.12
G1X0.18Y0.1
G1X0.19Y0.08
G1X0.21Y0.05
G1X0.22Y0.03
G1X0.24Y0.02
G1X0.24Y-0.02
G1X0.22Y-0.03
G1X0.2Y-0.06
G1X0.19Y-0.07
G1X0.17Y-0.1
G1X0.16Y-0.13
G1X0.14Y-0.14
G1X0.12Y-0.17
G1X0.11Y-0.19
G1X0.09Y-0.21
G1X0.08Y-0.23
G1X0.07Y-0.26
G1X0.05Y-0.27
G1X0.03Y-0.3
G1X0.02Y-0.32
G1X0.01Y-0.34
G1X-0.01Y-0.33
G1X-0.02Y-0.32
G1X-0.04Y-0.29
G1X-0.05Y-0.27
G1X-0.07Y-0.26
G1X-0.08Y-0.23
G1X-0.1Y-0.21
G1X-0.11Y-0.19
G1X-0.13Y-0.17
G1X-0.15Y-0.15
G1X-0.15Y-0.13
G1X-0.18Y-0.1
G1X-0.18Y-0.08
G1X-0.2Y-0.05
G1X-0.22Y-0.04
G1X-0.23Y-0.01
G1X-0.23Y0.01
G1X-0.21Y0.04
G1X-0.2Y0.05
G1X-0.19Y0.08
G1X-0.17Y0.1
G1X-0.16Y0.13
G1X-0.14Y0.14
G1X-0.12Y0.17
G1X-0.12Y0.19
G1X-0.09Y0.22
G1X-0.09Y0.23
G0X-2.51Y8.67
; Layer Engrave
G1X-0.43Y-0.03
G1X-0.37Y0.02
G1X-0.33Y0.06
G1X-0.29Y0.11
G1X-0.25Y0.15
G1X-0.22Y0.18
G1X-0.17Y0.23
G1X-0.13Y0.26
G1X-0.08Y0.3
G1X0.71Y0.08
G1X0.06Y-0.19
G1X0.09Y-0.17
G1X0.11Y-0.14
G1X0.14Y-0.11
G1X0.15Y-0.09
G1X0.18Y-0.06
G1X0.19Y-0.04
G1X0.22Y-0.01
G1X0.27Y0.02
G1X0.24Y0.06
G1X0.2Y0.11
G1X0.18Y0.15
G1X0.14Y0.18
G1X0.1Y0.22
G1X0.06Y0.25
G1X0.02Y0.29
G1X-0.02Y0.24
G1X-0.06Y0.23
G1X-0.1Y0.19
G1X-0.14Y0.18
G1X-0.18Y0.14
G1X-0.2Y0.1
G1X-0.23Y0.06
G1X-0.26Y0.02
G1X-0.28Y-0.03
G1X-0.25Y-0.06
G1X-0.25Y-0.12
G1X-0.25Y-0.19
G1X-0.68
G1X0.18Y2.96
G1X3.13
G1Y-0.59
G1X-2.49
G1X-0.1Y-1.75
G1X0.24Y0.15
G1X0.27Y0.11
G1X0.3Y0.07
G1X0.32Y0.02
G1X0.39Y-0.03
G1X0.34Y-0.09
G1X0.31Y-0.15
G1X0.26Y-0.21
G1X0.21Y-0.25
G1X0.15Y-0.29
G1X0.09Y-0.33
G1X0.03Y-0.37
G1X-0.03Y-0.41
G1X-0.1Y-0.37
G1X-0.16Y-0.32
G1X-0.23Y-0.27
G1X-0.28Y-0.22
G1X-0.33Y-0.15
G1X-0.39Y-0.1
G0X-3.14Y0.05
; Layer Engrave
G1X-3.45
G1Y0.6
G1X1.4
G1Y4.23
G1X-1.24Y-0.89
G1Y0.67
G1X1.3Y0.89
G1X0.65
G1Y-4.9
G1X1.34
G1Y-0.6
G0X6.47Y1.04
; Layer Engrave
G1X0.16Y-0.24
G1X0.21Y-0.17
G1X0.25Y-0.1
G1X0.29Y-0.03
G1X0.29Y0.03
G1X0.25Y0.1
G1X0.2Y0.18
G1X0.17Y0.24
G1X0.13Y0.31
G1X0.09Y0.39
G1X0.05Y0.47
G1X0.02Y0.53
G1X-0.02Y0.56
G1X-0.05Y0.47
G1X-0.09Y0.39
G1X-0.12Y0.31
G1X-0.16Y0.23
G1X-0.2Y0.17
G1X-0.25Y0.1
G1X-0.3Y0.04
G1X-0.3Y-0.04
G1X-0.25Y-0.1
G1X-0.21Y-0.16
G1X-0.17Y-0.23
G1X-0.12Y-0.31
G1X-0.09Y-0.39
G1X-0.05Y-0.48
G1X-0.02Y-0.56
G1X0.02Y-0.54
G1X0.05Y-0.47
G1X0.09Y-0.39
G1X0.13Y-0.31
G0X-0.64Y-0.21
; Layer Engrave
G1X-0.09Y0.22
G1X-0.09Y0.23
G1X-0.06Y0.25
G1X-0.05Y0.28
G1X-0.04Y0.29
G1X-0.02Y0.32
G1X-0.01Y0.33
G1X0.01Y0.35
G1X0.02Y0.32
G1X0.03Y0.3
G1X0.05Y0.27
G1X0.07Y0.26
G1X0.08Y0.23
G1X0.09Y0.21
G1X0.11Y0.19
G1X0.13Y0.16
G1X0.14Y0.15
G1X0.15Y0.12
G1X0.18Y0.1
G1X0.19Y0.08
G1X0.21Y0.05
G1X0.22Y0.03
G1X0.24Y0.02
G1X0.24Y-0.02
G1X0.22Y-0.03
G1X0.2Y-0.06
G1X0.19Y-0.07
G1X0.17Y-0.1
G1X0.16Y-0.13
G1X0.14Y-0.14
G1X0.12Y-0.17
G1X0.11Y-0.19
G1X0.09Y-0.21
G1X0.08Y-0.23
G1X0.07Y-0.26
G1X0.05Y-0.27
G1X0.03Y-0.3
G1X0.02Y-0.32
G1X0.01Y-0.34
G1X-0.01Y-0.33
G1X-0.02Y-0.32
G1X-0.04Y-0.29
G1X-0.05Y-0.27
G1X-0.07Y-0.26
G1X-0.08Y-0.23
G1X-0.1Y-0.21
G1X-0.11Y-0.19
G1X-0.13Y-0.17
G1X-0.15Y-0.15
G1X-0.15Y-0.13
G1X-0.18Y-0.1
G1X-0.18Y-0.08
G1X-0.2Y-0.05
G1X-0.22Y-0.04
G1X-0.23Y-0.01
G1X-0.23Y0.01
G1X-0.21Y0.04
G1X-0.2Y0.05
G1X-0.19Y0.08
G1X-0.17Y0.1
G1X-0.16Y0.13
G1X-0.14Y0.14
G1X-0.12Y0.17
G1X-0.12Y0.19
G0X1.65Y9.67
; Layer Engrave
G1X0.29Y0.03
G1X0.25Y0.1
G1X0.21Y0.18
G1X0.16Y0.24
G1X0.13Y0.31
G1X0.09Y0.39
G1X0.05Y0.47
G1X0.02Y0.53
G1X-0.02Y0.56
G1X-0.05Y0.47
G1X-0.08Y0.39
G1X-0.12Y0.31
G1X-0.16Y0.23
G1X-0.21Y0.17
G1X-0.25Y0.1
G1X-0.29Y0.03
G1X-0.3Y-0.03
G1X-0.26Y-0.1
G1X-0.21Y-0.16
G1X-0.16Y-0.23
G1X-0.13Y-0.31
G1X-0.09Y-0.39
G1X-0.05Y-0.48
G1X-0.02Y-0.56
G1X0.02Y-0.54
G1X0.05Y-0.47
G1X0.09Y-0.39
G1X0.13Y-0.31
G1X0.16Y-0.24
G1X0.21Y-0.17
G1X0.25Y-0.1
G1X0.29Y-0.03
G0X-0.01Y-0.58
; Layer Engrave
G1X-0.23Y0.01
G1X-0.21Y0.04
G1X-0.2Y0.05
G1X-0.19Y0.08
G1X-0.17Y0.1
G1X-0.15Y0.13
G1X-0.14Y0.14
G1X-0.13Y0.17
G1X-0.11Y0.19
G1X-0.1Y0.22
G1X-0.08Y0.23
G1X-0.07Y0.25
G1X-0.05Y0.28
G1X-0.04Y0.29
G1X-0.02Y0.32
G1X-0.01Y0.33
G1X0.01Y0.35
G1X0.02Y0.32
G1X0.04Y0.3
G1X0.05Y0.27
G1X0.06Y0.26
G1X0.08Y0.23
G1X0.1Y0.21
G1X0.11Y0.19
G1X0.12Y0.16
G1X0.14Y0.15
G1X0.16Y0.12
G1X0.17Y0.1
G1X0.19Y0.08
G1X0.21Y0.05
G1X0.23Y0.03
G1X0.24Y0.02
G1X0.23Y-0.02
G1X0.22Y-0.03
G1X0.21Y-0.06
G1X0.18Y-0.07
G1X0.17Y-0.1
G1X0.16Y-0.13
G1X0.14Y-0.14
G1X0.12Y-0.17
G1X0.11Y-0.19
G1X0.1Y-0.21
G1X0.07Y-0.23
G1X0.07Y-0.26
G1X0.05Y-0.27
G1X0.04Y-0.3
G1X0.02Y-0.32
G1X0.01Y-0.34
G1X-0.01Y-0.33
G1X-0.02Y-0.32
G1X-0.04Y-0.29
G1X-0.06Y-0.27
G1X-0.06Y-0.26
G1X-0.09Y-0.23
G1X-0.1Y-0.21
G1X-0.11Y-0.19
G1X-0.13Y-0.17
G1X-0.14Y-0.15
G1X-0.16Y-0.13
G1X-0.17Y-0.1
G1X-0.19Y-0.08
G1X-0.2Y-0.05
G1X-0.22Y-0.04
G1X-0.23Y-0.01
G0X-3.69Y1.13
; Layer Engrave
G1X0.13Y0.31
G1X0.09Y0.39
G1X0.06Y0.47
G1X0.01Y0.53
G1X-0.01Y0.56
G1X-0.06Y0.47
G1X-0.08Y0.39
G1X-0.12Y0.31
G1X-0.16Y0.23
G1X-0.21Y0.17
G1X-0.25Y0.1
G1X-0.29Y0.04
G1X-0.3Y-0.04
G1X-0.26Y-0.1
G1X-0.21Y-0.16
G1X-0.16Y-0.23
G1X-0.13Y-0.31
G1X-0.08Y-0.39
G1X-0.06Y-0.48
G1X-0.02Y-0.56
G1X0.02Y-0.54
G1X0.06Y-0.47
G1X0.09Y-0.39
G1X0.12Y-0.31
G1X0.17Y-0.24
G1X0.2Y-0.17
G1X0.25Y-0.1
G1X0.29Y-0.03
G1X0.29Y0.03
G1X0.25Y0.1
G1X0.21Y0.18
G1X0.16Y0.24
G0X0.63Y-0.21
; Layer Engrave
G1X-0.11Y-0.19
G1X-0.13Y-0.17
G1X-0.14Y-0.15
G1X-0.16Y-0.13
G1X-0.17Y-0.1
G1X-0.19Y-0.08
G1X-0.2Y-0.05
G1X-0.21Y-0.04
G1X-0.23Y-0.01
G1X-0.23Y0.01
G1X-0.22Y0.04
G1X-0.2Y0.05
G1X-0.19Y0.08
G1X-0.17Y0.1
G1X-0.15Y0.13
G1X-0.14Y0.14
G1X-0.13Y0.17
G1X-0.11Y0.19
G1X-0.1Y0.22
G1X-0.08Y0.23
G1X-0.07Y0.25
G1X-0.05Y0.28
G1X-0.04Y0.29
G1X-0.02Y0.32
G1X-0.01Y0.33
G1X0.01Y0.35
G1X0.02Y0.32
G1X0.04Y0.3
G1X0.05Y0.27
G1X0.06Y0.26
G1X0.08Y0.23
G1X0.1Y0.21
G1X0.11Y0.19
G1X0.12Y0.16
G1X0.14Y0.15
G1X0.16Y0.12
G1X0.17Y0.1
G1X0.19Y0.08
G1X0.21Y0.05
G1X0.23Y0.03
G1X0.24Y0.02
G1X0.23Y-0.02
G1X0.22Y-0.03
G1X0.21Y-0.06
G1X0.18Y-0.07
G1X0.18Y-0.1
G1X0.15Y-0.13
G1X0.14Y-0.14
G1X0.12Y-0.17
G1X0.11Y-0.19
G1X0.1Y-0.21
G1X0.08Y-0.23
G1X0.06Y-0.26
G1X0.05Y-0.27
G1X0.04Y-0.3
G1X0.02Y-0.32
G1X0.01Y-0.34
G1X-0.01Y-0.33
G1X-0.02Y-0.32
G1X-0.04Y-0.29
G1X-0.05Y-0.27
G1X-0.07Y-0.26
G1X-0.09Y-0.23
G1X-0.1Y-0.21
G0X-4.32Y-0.24
; Layer Engrave
G1Y-0.6
G1X-3.65
G1Y0.5
G1X0.23Y0.43
G1X0.26Y0.37
G1X0.3Y0.33
G1X0.3Y0.3
G1X0.32Y0.28
G1X0.31Y0.25
G1X0.3Y0.24
G1X0.26Y0.24
G1X0.23Y0.25
G1X0.18Y0.26
G1X0.06Y0.14
G1X0.05Y0.15
G1X0.03Y0.15
G1X0.01Y0.16
G1X-0.02Y0.22
G1X-0.05Y0.19
G1X-0.08Y0.16
G1X-0.11Y0.14
G1X-0.15Y0.11
G1X-0.17Y0.07
G1X-0.2Y0.05
G1X-0.22Y0.02
G1X-0.22Y-0.02
G1X-0.19Y-0.04
G1X-0.18Y-0.08
G1X-0.15Y-0.11
G1X-0.13Y-0.13
G1X-0.1Y-0.16
G1X-0.08Y-0.18
G1X-0.04Y-0.21
G1X-0.71Y0.06
G1X0.06Y0.32
G1X0.11Y0.28
G1X0.17Y0.24
G1X0.22Y0.21
G1X0.25Y0.18
G1X0.3Y0.12
G1X0.32Y0.07
G1X0.37Y0.03
G1X0.39Y-0.03
G1X0.34Y-0.07
G1X0.3Y-0.13
G1X0.25Y-0.17
G1X0.19Y-0.21
G1X0.14Y-0.26
G1X0.09Y-0.3
G1X0.02Y-0.34
G1X-0.03Y-0.32
G1X-0.11Y-0.32
G1X-0.19Y-0.32
G1X-0.25Y-0.31
G1X-0.18Y-0.18
G1X-0.24Y-0.23
G1X-0.31Y-0.26
G1X-0.37Y-0.31
G1X-0.41Y-0.35
G1X-0.31Y-0.32
G1X-0.23Y-0.28
G1X-0.15Y-0.28
G1X2.87
G0X-1.35Y9.35
; Layer Engrave
G1X-0.42Y-0.03
G1X-0.4Y0.02
G1X-0.35Y0.07
G1X-0.31Y0.12
G1X-0.27Y0.17
G1X-0.23Y0.21
G1X-0.17Y0.26
G1X-0.12Y0.3
G1X-0.07Y0.34
G1X0.72Y0.07
G1X0.05Y-0.23
G1X0.08Y-0.2
G1X0.11Y-0.17
G1X0.13Y-0.13
G1X0.17Y-0.11
G1X0.19Y-0.08
G1X0.22Y-0.04
G1X0.25Y-0.02
G1X0.25Y0.02
G1X0.22Y0.05
G1X0.2Y0.08
G1X0.16Y0.11
G1X0.14Y0.15
G1X0.09Y0.18
G1X0.06Y0.21
G1X0.02Y0.24
G1X-0.02Y0.21
G1X-0.07Y0.19
G1X-0.11Y0.16
G1X-0.15Y0.14
G1X-0.19Y0.11
G1X-0.23Y0.08
G1X-0.27Y0.05
G1X-0.31Y0.02
G1X-0.39
G1Y0.6
G1X0.38
G1X0.27Y0.02
G1X0.24Y0.05
G1X0.21Y0.08
G1X0.17Y0.11
G1X0.14Y0.13
G1X0.1Y0.17
G1X0.06Y0.18
G1X0.02Y0.21
G1X-0.01Y0.21
G1X-0.05Y0.19
G1X-0.08Y0.16
G1X-0.12Y0.14
G1X-0.14Y0.11
G1X-0.18Y0.08
G1X-0.21Y0.05
G1X-0.24Y0.02
G1X-0.22Y-0.02
G1X-0.2Y-0.04
G1X-0.18Y-0.08
G1X-0.15Y-0.1
G1X-0.13Y-0.13
G1X-0.1Y-0.16
G1X-0.07Y-0.18
G1X-0.03Y-0.2
G1X-0.71Y0.05
G1X0.06Y0.32
G1X0.12Y0.28
G1X0.16Y0.25
G1X0.22Y0.21
G1X0.26Y0.16
G1X0.29Y0.12
G1X0.33Y0.07
G1X0.36Y0.03
G1X0.39Y-0.03
G1X0.35Y-0.07
G1X0.29Y-0.12
G1X0.26Y-0.17
G1X0.2Y-0.21
G1X0.14Y-0.25
G1X0.09Y-0.29
G1X0.03Y-0.32
G1X-0.02Y-0.25
G1X-0.06Y-0.23
G1X-0.09Y-0.2
G1X-0.13Y-0.18
G1X-0.16Y-0.15
G1X-0.2Y-0.13
G1X-0.23Y-0.1
G1X-0.27Y-0.07
G1Y-0.01
G1X0.29Y-0.05
G1X0.26Y-0.09
G1X0.23Y-0.12
G1X0.18Y-0.16
G1X0.15Y-0.18
G1X0.11Y-0.21
G1X0.07Y-0.23
G1X0.02Y-0.25
G1X-0.03Y-0.36
G1X-0.09Y-0.32
G1X-0.15Y-0.27
G1X-0.22Y-0.23
G1X-0.26Y-0.18
G1X-0.32Y-0.14
G1X-0.38Y-0.07
G0X3.27Y1.09
; Layer Engrave
G1X0.16Y-0.24
G1X0.21Y-0.17
G1X0.25Y-0.1
G1X0.29Y-0.03
G1X0.29Y0.03
G1X0.25Y0.1
G1X0.21Y0.18
G1X0.16Y0.24
G1X0.13Y0.31
G1X0.09Y0.39
G1X0.05Y0.47
G1X0.02Y0.53
G1X-0.02Y0.56
G1X-0.05Y0.47
G1X-0.08Y0.39
G1X-0.12Y0.31
G1X-0.16Y0.23
G1X-0.21Y0.17
G1X-0.25Y0.1
G1X-0.29Y0.04
G1X-0.3Y-0.04
G1X-0.26Y-0.1
G1X-0.21Y-0.16
G1X-0.16Y-0.23
G1X-0.13Y-0.31
G1X-0.09Y-0.39
G1X-0.05Y-0.48
G1X-0.02Y-0.56
G1X0.02Y-0.54
G1X0.05Y-0.47
G1X0.09Y-0.39
G1X0.13Y-0.31
G0X-0.63Y-0.21
; Layer Engrave
G1X-0.1Y0.22
G1X-0.08Y0.23
G1X-0.07Y0.25
G1X-0.05Y0.28
G1X-0.04Y0.29
G1X-0.02Y0.32
G1X-0.01Y0.33
G1X0.01Y0.35
G1X0.02Y0.32
G1X0.04Y0.3
G1X0.05Y0.27
G1X0.06Y0.26
G1X0.08Y0.23
G1X0.1Y0.21
G1X0.1Y0.19
G1X0.13Y0.16
G1X0.14Y0.15
G1X0.16Y0.12
G1X0.17Y0.1
G1X0.19Y0.08
G1X0.21Y0.05
G1X0.23Y0.03
G1X0.24Y0.02
G1X0.23Y-0.02
G1X0.22Y-0.03
G1X0.21Y-0.06
G1X0.18Y-0.07
G1X0.17Y-0.1
G1X0.16Y-0.13
G1X0.14Y-0.14
G1X0.12Y-0.17
G1X0.11Y-0.19
G1X0.1Y-0.21
G1X0.07Y-0.23
G1X0.07Y-0.26
G1X0.05Y-0.27
G1X0.04Y-0.3
G1X0.02Y-0.32
G1X0.01Y-0.34
G1X-0.01Y-0.33
G1X-0.02Y-0.32
G1X-0.04Y-0.29
G1X-0.06Y-0.27
G1X-0.06Y-0.26
G1X-0.09Y-0.23
G1X-0.1Y-0.21
G1X-0.11Y-0.19
G1X-0.13Y-0.17
G1X-0.14Y-0.15
G1X-0.16Y-0.13
G1X-0.17Y-0.1
G1X-0.19Y-0.08
G1X-0.2Y-0.05
G1X-0.22Y-0.04
G1X-0.23Y-0.01
G1X-0.23Y0.01
G1X-0.21Y0.04
G1X-0.2Y0.05
G1X-0.19Y0.08
G1X-0.17Y0.1
G1X-0.15Y0.13
G1X-0.14Y0.14
G1X-0.13Y0.17
G1X-0.11Y0.19
G0X5.11Y0.52
; Layer Engrave
G1X0.13Y-0.31
G1X0.16Y-0.24
G1X0.21Y-0.17
G1X0.25Y-0.1
G1X0.29Y-0.03
G1X0.29Y0.03
G1X0.25Y0.1
G1X0.21Y0.18
G1X0.16Y0.24
G1X0.13Y0.31
G1X0.09Y0.39
G1X0.05Y0.47
G1X0.02Y0.53
G1X-0.02Y0.56
G1X-0.05Y0.47
G1X-0.08Y0.39
G1X-0.13Y0.31
G1X-0.16Y0.23
G1X-0.2Y0.17
G1X-0.25Y0.1
G1X-0.29Y0.04
G1X-0.3Y-0.04
G1X-0.26Y-0.1
G1X-0.21Y-0.16
G1X-0.16Y-0.23
G1X-0.13Y-0.31
G1X-0.09Y-0.39
G1X-0.05Y-0.48
G1X-0.02Y-0.56
G1X0.02Y-0.54
G1X0.05Y-0.47
G1X0.09Y-0.39
G0X-0.68Y-0.07
; Layer Engrave
G1X-0.07Y0.25
G1X-0.05Y0.28
G1X-0.04Y0.29
G1X-0.02Y0.32
G1X-0.01Y0.33
G1X0.01Y0.35
G1X0.02Y0.32
G1X0.04Y0.3
G1X0.05Y0.27
G1X0.06Y0.26
G1X0.08Y0.23
G1X0.1Y0.21
G1X0.1Y0.19
G1X0.13Y0.16
G1X0.14Y0.15
G1X0.16Y0.12
G1X0.17Y0.1
G1X0.19Y0.08
G1X0.21Y0.05
G1X0.23Y0.03
G1X0.24Y0.02
G1X0.23Y-0.02
G1X0.22Y-0.03
G1X0.2Y-0.06
G1X0.19Y-0.07
G1X0.17Y-0.1
G1X0.16Y-0.13
G1X0.14Y-0.14
G1X0.12Y-0.17
G1X0.11Y-0.19
G1X0.09Y-0.21
G1X0.08Y-0.23
G1X0.07Y-0.26
G1X0.05Y-0.27
G1X0.04Y-0.3
G1X0.02Y-0.32
G1Y-0.34
G1Y-0.33
G1X-0.03Y-0.32
G1X-0.03Y-0.29
G1X-0.06Y-0.27
G1X-0.07Y-0.26
G1X-0.08Y-0.23
G1X-0.1Y-0.21
G1X-0.11Y-0.19
G1X-0.13Y-0.17
G1X-0.14Y-0.15
G1X-0.16Y-0.13
G1X-0.17Y-0.1
G1X-0.19Y-0.08
G1X-0.2Y-0.05
G1X-0.22Y-0.04
G1X-0.23Y-0.01
G1X-0.23Y0.01
G1X-0.21Y0.04
G1X-0.2Y0.05
G1X-0.19Y0.08
G1X-0.17Y0.1
G1X-0.15Y0.13
G1X-0.15Y0.14
G1X-0.12Y0.17
G1X-0.11Y0.19
G1X-0.1Y0.22
G1X-0.08Y0.23
G0X1.78Y9.22
; Layer Engrave
G1X0.29Y0.03
G1X0.25Y0.1
G1X0.21Y0.18
G1X0.16Y0.24
G1X0.13Y0.31
G1X0.09Y0.39
G1X0.05Y0.47
G1X0.02Y0.53
G1X-0.02Y0.56
G1X-0.05Y0.47
G1X-0.08Y0.39
G1X-0.12Y0.31
G1X-0.16Y0.23
G1X-0.21Y0.17
G1X-0.25Y0.1
G1X-0.29Y0.04
G1X-0.3Y-0.04
G1X-0.26Y-0.1
G1X-0.21Y-0.16
G1X-0.16Y-0.23
G1X-0.13Y-0.31
G1X-0.09Y-0.39
G1X-0.05Y-0.48
G1X-0.02Y-0.56
G1X0.02Y-0.54
G1X0.05Y-0.47
G1X0.09Y-0.39
G1X0.13Y-0.31
G1X0.16Y-0.24
G1X0.21Y-0.17
G1X0.25Y-0.1
G1X0.29Y-0.03
G0X-0.01Y-0.58
; Layer Engrave
G1X-0.23Y0.01
G1X-0.21Y0.04
G1X-0.2Y0.05
G1X-0.19Y0.08
G1X-0.17Y0.1
G1X-0.15Y0.13
G1X-0.15Y0.14
G1X-0.12Y0.17
G1X-0.11Y0.19
G1X-0.1Y0.22
G1X-0.08Y0.23
G1X-0.07Y0.25
G1X-0.05Y0.28
G1X-0.04Y0.29
G1X-0.02Y0.32
G1X-0.01Y0.33
G1X0.01Y0.35
G1X0.02Y0.32
G1X0.04Y0.3
G1X0.05Y0.27
G1X0.06Y0.26
G1X0.08Y0.23
G1X0.1Y0.21
G1X0.1Y0.19
G1X0.13Y0.16
G1X0.14Y0.15
G1X0.16Y0.12
G1X0.17Y0.1
G1X0.19Y0.08
G1X0.21Y0.05
G1X0.23Y0.03
G1X0.24Y0.02
G1X0.23Y-0.02
G1X0.22Y-0.03
G1X0.21Y-0.06
G1X0.18Y-0.07
G1X0.17Y-0.1
G1X0.16Y-0.13
G1X0.14Y-0.14
G1X0.12Y-0.17
G1X0.11Y-0.19
G1X0.09Y-0.21
G1X0.08Y-0.23
G1X0.07Y-0.26
G1X0.05Y-0.27
G1X0.04Y-0.3
G1X0.02Y-0.32
G1X0.01Y-0.34
G1X-0.01Y-0.33
G1X-0.03Y-0.32
G1X-0.03Y-0.29
G1X-0.06Y-0.27
G1X-0.06Y-0.26
G1X-0.09Y-0.23
G1X-0.1Y-0.21
G1X-0.11Y-0.19
G1X-0.13Y-0.17
G1X-0.14Y-0.15
G1X-0.16Y-0.13
G1X-0.17Y-0.1
G1X-0.19Y-0.08
G1X-0.2Y-0.05
G1X-0.22Y-0.04
G1X-0.23Y-0.01
G0X-3.69Y1.13
; Layer Engrave
G1X0.13Y0.31
G1X0.09Y0.39
G1X0.05Y0.47
G1X0.02Y0.53
G1X-0.01Y0.56
G1X-0.06Y0.47
G1X-0.08Y0.39
G1X-0.12Y0.31
G1X-0.16Y0.23
G1X-0.21Y0.17
G1X-0.25Y0.1
G1X-0.29Y0.04
G1X-0.3Y-0.04
G1X-0.26Y-0.1
G1X-0.21Y-0.16
G1X-0.16Y-0.23
G1X-0.13Y-0.31
G1X-0.09Y-0.39
G1X-0.05Y-0.48
G1X-0.02Y-0.56
G1X0.02Y-0.54
G1X0.06Y-0.47
G1X0.09Y-0.39
G1X0.12Y-0.31
G1X0.17Y-0.24
G1X0.2Y-0.17
G1X0.25Y-0.1
G1X0.29Y-0.03
G1X0.29Y0.03
G1X0.25Y0.1
G1X0.21Y0.18
G1X0.16Y0.24
G0X0.63Y-0.21
; Layer Engrave
G1X-0.11Y-0.19
G1X-0.13Y-0.17
G1X-0.14Y-0.15
G1X-0.16Y-0.13
G1X-0.17Y-0.1
G1X-0.19Y-0.08
G1X-0.2Y-0.05
G1X-0.22Y-0.04
G1X-0.22Y-0.01
G1X-0.23Y0.01
G1X-0.22Y0.04
G1X-0.2Y0.05
G1X-0.19Y0.08
G1X-0.17Y0.1
G1X-0.15Y0.13
G1X-0.14Y0.14
G1X-0.13Y0.17
G1X-0.11Y0.19
G1X-0.1Y0.22
G1X-0.08Y0.23
G1X-0.07Y0.25
G1X-0.05Y0.28
G1X-0.04Y0.29
G1X-0.02Y0.32
G1X-0.01Y0.33
G1X0.01Y0.35
G1X0.02Y0.32
G1X0.04Y0.3
G1X0.05Y0.27
G1X0.06Y0.26
G1X0.08Y0.23
G1X0.1Y0.21
G1X0.11Y0.19
G1X0.12Y0.16
G1X0.14Y0.15
G1X0.16Y0.12
G1X0.17Y0.1
G1X0.19Y0.08
G1X0.21Y0.05
G1X0.23Y0.03
G1X0.24Y0.02
G1X0.23Y-0.02
G1X0.22Y-0.03
G1X0.21Y-0.06
G1X0.18Y-0.07
G1X0.18Y-0.1
G1X0.15Y-0.13
G1X0.14Y-0.14
G1X0.12Y-0.17
G1X0.11Y-0.19
G1X0.1Y-0.21
G1X0.08Y-0.23
G1X0.06Y-0.26
G1X0.05Y-0.27
G1X0.04Y-0.3
G1X0.02Y-0.32
G1X0.01Y-0.34
G1X-0.01Y-0.33
G1X-0.02Y-0.32
G1X-0.04Y-0.29
G1X-0.06Y-0.27
G1X-0.06Y-0.26
G1X-0.09Y-0.23
G1X-0.1Y-0.21
G0X-5.59Y0.96
; Layer Engrave
G1Y2.91
G1X-0.03Y-0.06
G1X-0.08Y-0.15
G1X-0.09Y-0.15
G1X-0.06Y-0.1
G1X-1.41Y-2.08
G1X-0.21Y-0.29
G1X-0.07Y-0.08
G1X1.95
G0X0.66Y0
; Layer Engrave
G1X0.78
G1Y-0.55
G1X-0.78
G1Y-1.25
G1X-0.66
G1Y1.25
G1X-2.59
G1Y0.54
G1X2.52Y3.71
G1X0.73
G1Y-3.7
G0X-1.35Y8.12
; Layer Engrave
G1X-0.36Y0.02
G1X-0.33Y0.06
G1X-0.29Y0.11
G1X-0.26Y0.15
G1X-0.21Y0.18
G1X-0.17Y0.23
G1X-0.13Y0.26
G1X-0.09Y0.3
G1X0.71Y0.08
G1X0.07Y-0.19
G1X0.09Y-0.17
G1X0.11Y-0.14
G1X0.13Y-0.11
G1X0.16Y-0.09
G1X0.17Y-0.06
G1X0.2Y-0.04
G1X0.22Y-0.01
G1X0.27Y0.02
G1X0.23Y0.06
G1X0.21Y0.11
G1X0.18Y0.15
G1X0.14Y0.18
G1X0.1Y0.22
G1X0.06Y0.25
G1X0.02Y0.29
G1X-0.02Y0.24
G1X-0.06Y0.23
G1X-0.11Y0.19
G1X-0.14Y0.18
G1X-0.17Y0.14
G1X-0.2Y0.1
G1X-0.24Y0.06
G1X-0.26Y0.02
G1X-0.27Y-0.03
G1X-0.26Y-0.06
G1X-0.24Y-0.13
G1X-0.25Y-0.18
G1X-0.69
G1X0.19Y2.96
G1X3.13
G1Y-0.6
G1X-2.49
G1X-0.11Y-1.74
G1X0.24Y0.15
G1X0.28Y0.11
G1X0.29Y0.07
G1X0.33Y0.02
G1X0.39Y-0.03
G1X0.34Y-0.09
G1X0.3Y-0.15
G1X0.26Y-0.21
G1X0.22Y-0.25
G1X0.15Y-0.3
G1X0.09Y-0.32
G1X0.03Y-0.37
G1X-0.04Y-0.41
G1X-0.09Y-0.37
G1X-0.16Y-0.32
G1X-0.23Y-0.27
G1X-0.28Y-0.22
G1X-0.34Y-0.15
G1X-0.38Y-0.1
G1X-0.44Y-0.03
G0X3.76Y1.12
; Layer Engrave
G1X0.17Y-0.24
G1X0.2Y-0.17
G1X0.25Y-0.1
G1X0.29Y-0.04
G1X0.29Y0.04
G1X0.25Y0.1
G1X0.21Y0.18
G1X0.17Y0.24
G1X0.12Y0.31
G1X0.09Y0.39
G1X0.06Y0.47
G1X0.01Y0.53
G1X-0.01Y0.56
G1X-0.05Y0.47
G1X-0.09Y0.39
G1X-0.12Y0.31
G1X-0.16Y0.23
G1X-0.21Y0.17
G1X-0.25Y0.1
G1X-0.29Y0.03
G1X-0.3Y-0.03
G1X-0.26Y-0.1
G1X-0.21Y-0.16
G1X-0.16Y-0.23
G1X-0.13Y-0.31
G1X-0.08Y-0.39
G1X-0.06Y-0.48
G1X-0.01Y-0.56
G1X0.01Y-0.54
G1X0.06Y-0.47
G1X0.09Y-0.39
G1X0.12Y-0.31
G0X-0.63Y-0.21
; Layer Engrave
G1X-0.1Y0.22
G1X-0.08Y0.23
G1X-0.07Y0.25
G1X-0.05Y0.28
G1X-0.04Y0.29
G1X-0.02Y0.32
G1X-0.01Y0.33
G1X0.01Y0.35
G1X0.02Y0.32
G1X0.04Y0.3
G1X0.05Y0.27
G1X0.07Y0.26
G1X0.07Y0.23
G1X0.1Y0.21
G1X0.11Y0.19
G1X0.12Y0.16
G1X0.14Y0.15
G1X0.16Y0.12
G1X0.17Y0.1
G1X0.2Y0.08
G1X0.2Y0.05
G1X0.23Y0.03
G1X0.24Y0.01
G1X0.24Y-0.01
G1X0.22Y-0.03
G1X0.2Y-0.06
G1X0.19Y-0.07
G1X0.17Y-0.1
G1X0.15Y-0.13
G1X0.14Y-0.14
G1X0.13Y-0.17
G1X0.1Y-0.19
G1X0.1Y-0.21
G1X0.08Y-0.23
G1X0.06Y-0.26
G1X0.05Y-0.27
G1X0.04Y-0.3
G1X0.02Y-0.32
G1X0.01Y-0.34
G1X-0.01Y-0.33
G1X-0.02Y-0.32
G1X-0.04Y-0.29
G1X-0.05Y-0.27
G1X-0.07Y-0.26
G1X-0.09Y-0.23
G1X-0.09Y-0.21
G1X-0.12Y-0.19
G1X-0.13Y-0.17
G1X-0.14Y-0.15
G1X-0.16Y-0.13
G1X-0.17Y-0.1
G1X-0.19Y-0.08
G1X-0.2Y-0.05
G1X-0.21Y-0.04
G1X-0.23Y-0.01
G1X-0.23Y0.01
G1X-0.22Y0.04
G1X-0.2Y0.05
G1X-0.18Y0.08
G1X-0.17Y0.1
G1X-0.16Y0.13
G1X-0.14Y0.14
G1X-0.13Y0.17
G1X-0.11Y0.19
G0X5.12Y0.52
; Layer Engrave
G1X0.12Y-0.31
G1X0.17Y-0.24
G1X0.2Y-0.17
G1X0.25Y-0.1
G1X0.29Y-0.04
G1X0.29Y0.04
G1X0.25Y0.1
G1X0.21Y0.18
G1X0.16Y0.24
G1X0.13Y0.31
G1X0.09Y0.39
G1X0.06Y0.47
G1X0.01Y0.53
G1X-0.01Y0.56
G1X-0.06Y0.47
G1X-0.08Y0.39
G1X-0.12Y0.31
G1X-0.16Y0.23
G1X-0.21Y0.17
G1X-0.25Y0.1
G1X-0.29Y0.03
G1X-0.3Y-0.03
G1X-0.26Y-0.1
G1X-0.21Y-0.16
G1X-0.16Y-0.23
G1X-0.13Y-0.31
G1X-0.08Y-0.39
G1X-0.06Y-0.48
G1X-0.02Y-0.56
G1X0.02Y-0.54
G1X0.06Y-0.47
G1X0.09Y-0.39
G0X-0.69Y-0.07
; Layer Engrave
G1X-0.07Y0.25
G1X-0.05Y0.28
G1X-0.04Y0.29
G1X-0.02Y0.32
G1X-0.01Y0.33
G1X0.01Y0.35
G1X0.02Y0.32
G1X0.04Y0.3
G1X0.05Y0.27
G1X0.06Y0.26
G1X0.08Y0.23
G1X0.1Y0.21
G1X0.11Y0.19
G1X0.12Y0.16
G1X0.14Y0.15
G1X0.16Y0.12
G1X0.17Y0.1
G1X0.19Y0.08
G1X0.21Y0.05
G1X0.23Y0.03
G1X0.24Y0.01
G1X0.23Y-0.01
G1X0.22Y-0.03
G1X0.21Y-0.06
G1X0.18Y-0.07
G1X0.18Y-0.1
G1X0.15Y-0.13
G1X0.14Y-0.14
G1X0.12Y-0.17
G1X0.11Y-0.19
G1X0.1Y-0.21
G1X0.08Y-0.23
G1X0.06Y-0.26
G1X0.05Y-0.27
G1X0.04Y-0.3
G1X0.02Y-0.32
G1X0.01Y-0.34
G1X-0.01Y-0.33
G1X-0.02Y-0.32
G1X-0.04Y-0.29
G1X-0.05Y-0.27
G1X-0.07Y-0.26
G1X-0.09Y-0.23
G1X-0.1Y-0.21
G1X-0.11Y-0.19
G1X-0.13Y-0.17
G1X-0.14Y-0.15
G1X-0.16Y-0.13
G1X-0.17Y-0.1
G1X-0.19Y-0.08
G1X-0.2Y-0.05
G1X-0.21Y-0.04
G1X-0.23Y-0.01
G1X-0.23Y0.01
G1X-0.22Y0.04
G1X-0.2Y0.05
G1X-0.19Y0.08
G1X-0.17Y0.1
G1X-0.15Y0.13
G1X-0.14Y0.14
G1X-0.13Y0.17
G1X-0.11Y0.19
G1X-0.1Y0.22
G1X-0.08Y0.23
G0X1.68Y9.21
; Layer Engrave
G1X0.29Y0.04
G1X0.25Y0.1
G1X0.21Y0.18
G1X0.16Y0.24
G1X0.13Y0.31
G1X0.09Y0.39
G1X0.05Y0.47
G1X0.02Y0.53
G1X-0.02Y0.56
G1X-0.05Y0.47
G1X-0.09Y0.39
G1X-0.12Y0.31
G1X-0.16Y0.23
G1X-0.2Y0.17
G1X-0.25Y0.1
G1X-0.29Y0.03
G1X-0.31Y-0.03
G1X-0.25Y-0.1
G1X-0.21Y-0.16
G1X-0.17Y-0.23
G1X-0.12Y-0.31
G1X-0.09Y-0.39
G1X-0.05Y-0.48
G1X-0.02Y-0.56
G1X0.02Y-0.54
G1X0.05Y-0.47
G1X0.09Y-0.39
G1X0.13Y-0.31
G1X0.16Y-0.24
G1X0.21Y-0.17
G1X0.25Y-0.1
G1X0.29Y-0.04
G0X-0.01Y-0.57
; Layer Engrave
G1X-0.23Y0.01
G1X-0.21Y0.04
G1X-0.2Y0.05
G1X-0.19Y0.08
G1X-0.17Y0.1
G1X-0.16Y0.13
G1X-0.14Y0.14
G1X-0.12Y0.17
G1X-0.11Y0.19
G1X-0.1Y0.22
G1X-0.08Y0.23
G1X-0.07Y0.25
G1X-0.05Y0.28
G1X-0.04Y0.29
G1X-0.02Y0.32
G1X-0.01Y0.33
G1X0.01Y0.35
G1X0.02Y0.32
G1X0.04Y0.3
G1X0.05Y0.27
G1X0.06Y0.26
G1X0.08Y0.23
G1X0.09Y0.21
G1X0.11Y0.19
G1X0.13Y0.16
G1X0.14Y0.15
G1X0.16Y0.12
G1X0.17Y0.1
G1X0.19Y0.08
G1X0.21Y0.05
G1X0.22Y0.03
G1X0.25Y0.01
G1X0.23Y-0.01
G1X0.22Y-0.03
G1X0.2Y-0.06
G1X0.19Y-0.07
G1X0.17Y-0.1
G1X0.16Y-0.13
G1X0.14Y-0.14
G1X0.12Y-0.17
G1X0.11Y-0.19
G1X0.09Y-0.21
G1X0.08Y-0.23
G1X0.07Y-0.26
G1X0.05Y-0.27
G1X0.03Y-0.3
G1X0.03Y-0.32
G1Y-0.34
G1Y-0.33
G1X-0.03Y-0.32
G1X-0.03Y-0.29
G1X-0.06Y-0.27
G1X-0.07Y-0.26
G1X-0.08Y-0.23
G1X-0.1Y-0.21
G1X-0.11Y-0.19
G1X-0.13Y-0.17
G1X-0.14Y-0.15
G1X-0.16Y-0.13
G1X-0.17Y-0.1
G1X-0.19Y-0.08
G1X-0.2Y-0.05
G1X-0.22Y-0.04
G1X-0.23Y-0.01
G0X-3.69Y1.13
; Layer Engrave
G1X0.13Y0.31
G1X0.09Y0.39
G1X0.05Y0.47
G1X0.02Y0.53
G1X-0.02Y0.56
G1X-0.05Y0.47
G1X-0.08Y0.39
G1X-0.12Y0.31
G1X-0.16Y0.23
G1X-0.21Y0.17
G1X-0.25Y0.1
G1X-0.29Y0.03
G1X-0.3Y-0.03
G1X-0.26Y-0.1
G1X-0.21Y-0.16
G1X-0.16Y-0.23
G1X-0.13Y-0.31
G1X-0.09Y-0.39
G1X-0.05Y-0.48
G1X-0.02Y-0.56
G1X0.02Y-0.54
G1X0.05Y-0.47
G1X0.09Y-0.39
G1X0.13Y-0.31
G1X0.16Y-0.24
G1X0.21Y-0.17
G1X0.25Y-0.1
G1X0.29Y-0.04
G1X0.29Y0.04
G1X0.25Y0.1
G1X0.21Y0.18
G1X0.16Y0.24
G0X0.63Y-0.21
; Layer Engrave
G1X-0.11Y-0.19
G1X-0.13Y-0.17
G1X-0.14Y-0.15
G1X-0.16Y-0.13
G1X-0.17Y-0.1
G1X-0.19Y-0.08
G1X-0.2Y-0.05
G1X-0.22Y-0.04
G1X-0.23Y-0.01
G1X-0.23Y0.01
G1X-0.21Y0.04
G1X-0.2Y0.05
G1X-0.19Y0.08
G1X-0.17Y0.1
G1X-0.15Y0.13
G1X-0.15Y0.14
G1X-0.12Y0.17
G1X-0.11Y0.19
G1X-0.1Y0.22
G1X-0.08Y0.23
G1X-0.07Y0.25
G1X-0.05Y0.28
G1X-0.04Y0.29
G1X-0.02Y0.32
G1X-0.01Y0.33
G1X0.01Y0.35
G1X0.02Y0.32
G1X0.04Y0.3
G1X0.05Y0.27
G1X0.06Y0.26
G1X0.08Y0.23
G1X0.1Y0.21
G1X0.1Y0.19
G1X0.13Y0.16
G1X0.14Y0.15
G1X0.16Y0.12
G1X0.17Y0.1
G1X0.19Y0.08
G1X0.21Y0.05
G1X0.23Y0.03
G1X0.24Y0.01
G1X0.23Y-0.01
G1X0.22Y-0.03
G1X0.21Y-0.06
G1X0.18Y-0.07
G1X0.17Y-0.1
G1X0.16Y-0.13
G1X0.14Y-0.14
G1X0.12Y-0.17
G1X0.11Y-0.19
G1X0.09Y-0.21
G1X0.08Y-0.23
G1X0.07Y-0.26
G1X0.05Y-0.27
G1X0.04Y-0.3
G1X0.02Y-0.32
G1Y-0.34
G1Y-0.33
G1X-0.03Y-0.32
G1X-0.03Y-0.29
G1X-0.06Y-0.27
G1X-0.06Y-0.26
G1X-0.09Y-0.23
G1X-0.1Y-0.21
G0X-5.06Y0.4
; Layer Engrave
G1X0.05Y0.25
G1X0.02Y0.28
G1X-0.02Y0.28
G1X-0.05Y0.25
G1X-0.09Y0.21
G1X-0.13Y0.18
G1X-0.16Y0.14
G1X-0.19Y0.1
G1X-0.22Y0.06
G1X-0.25Y0.02
G1X-0.23Y-0.01
G1X-0.21Y-0.06
G1X-0.19Y-0.09
G1X-0.16Y-0.12
G1X-0.13Y-0.16
G1X-0.1Y-0.18
G1X-0.05Y-0.22
G1X-0.02Y-0.23
G1X0.02Y-0.31
G1X0.05Y-0.27
G1X0.1Y-0.25
G1X0.14Y-0.22
G1X0.17Y-0.17
G1X0.19Y-0.13
G1X0.21Y-0.08
G1X0.24Y-0.02
G1X0.24Y0.02
G1X0.21Y0.06
G1X0.19Y0.11
G1X0.15Y0.15
G1X0.13Y0.19
G1X0.09Y0.22
G0X0.67Y-0.22
; Layer Engrave
G1X-0.15Y-0.32
G1X-0.21Y-0.28
G1X-0.25Y-0.22
G1X-0.31Y-0.15
G1X-0.35Y-0.1
G1X-0.39Y-0.03
G1X-0.23Y0.01
G1X-0.21Y0.03
G1X-0.2Y0.06
G1X-0.18Y0.07
G1X-0.17Y0.1
G1X-0.16Y0.12
G1X-0.14Y0.14
G1X-0.13Y0.16
G1X-0.22Y0.39
G1X-0.15Y0.46
G1X-0.09Y0.54
G1X-0.03Y0.62
G1Y0.35
G1X0.03Y0.33
G1X0.04Y0.3
G1X0.05Y0.29
G1X0.08Y0.26
G1X0.08Y0.24
G1X0.11Y0.23
G1X0.12Y0.2
G1X0.13Y0.18
G1X0.15Y0.15
G1X0.16Y0.14
G1X0.18Y0.1
G1X0.19Y0.09
G1X0.2Y0.06
G1X0.22Y0.03
G1X0.22Y0.01
G1X0.3Y-0.01
G1X0.27Y-0.06
G1X0.24Y-0.08
G1X0.21Y-0.13
G1X0.18Y-0.15
G1X0.16Y-0.2
G1X0.12Y-0.22
G1X0.09Y-0.27
G1X-0.67Y-0.12
G1X-0.06Y0.16
G1X-0.07Y0.14
G1X-0.09Y0.11
G1X-0.11Y0.1
G1X-0.12Y0.07
G1X-0.13Y0.05
G1X-0.16Y0.03
G1X-0.16Y0.01
G1X-0.29Y-0.03
G1X-0.25Y-0.11
G1X-0.21Y-0.17
G1X-0.18Y-0.25
G1X-0.15Y-0.31
G1X-0.1Y-0.37
G1X-0.06Y-0.44
G1X-0.03Y-0.5
G1X0.11Y0.17
G1X0.13Y0.14
G1X0.14Y0.13
G1X0.17Y0.1
G1X0.18Y0.08
G1X0.19Y0.06
G1X0.2Y0.04
G1X0.22Y0.01
G1X0.36Y-0.03
G1X0.32Y-0.09
G1X0.29Y-0.15
G1X0.24Y-0.21
G1X0.2Y-0.26
G1X0.14Y-0.3
G1X0.08Y-0.34
G1X0.03Y-0.38
G1X-0.03Y-0.41
G1X-0.09Y-0.37
G0X-1.45Y9.44
; Layer Engrave
G1X0.24Y0.06
G1X0.19Y0.08
G1X0.16Y0.12
G1X0.12Y0.16
G1X0.09Y0.2
G1X0.05Y0.24
G1X0.02Y0.28
G1X-0.02Y0.24
G1X-0.06Y0.21
G1X-0.09Y0.18
G1X-0.13Y0.14
G1X-0.17Y0.12
G1X-0.2Y0.08
G1X-0.23Y0.04
G1X-0.26Y0.02
G1X-0.25Y-0.02
G1X-0.23Y-0.05
G1X-0.19Y-0.09
G1X-0.17Y-0.12
G1X-0.13Y-0.15
G1X-0.09Y-0.18
G1X-0.06Y-0.2
G1X-0.02Y-0.24
G1X0.02Y-0.26
G1X0.06Y-0.23
G1X0.09Y-0.2
G1X0.12Y-0.16
G1X0.17Y-0.12
G1X0.2Y-0.09
G1X0.23Y-0.05
G1X0.27Y-0.02
G1X0.27Y0.01
G0X3.42Y0.58
; Layer Engrave
G1X0.16Y-0.24
G1X0.21Y-0.17
G1X0.25Y-0.1
G1X0.29Y-0.04
G1X0.29Y0.04
G1X0.25Y0.1
G1X0.21Y0.18
G1X0.16Y0.24
G1X0.13Y0.31
G1X0.09Y0.39
G1X0.05Y0.47
G1X0.02Y0.53
G1X-0.02Y0.56
G1X-0.05Y0.47
G1X-0.08Y0.39
G1X-0.12Y0.31
G1X-0.17Y0.23
G1X-0.2Y0.17
G1X-0.25Y0.1
G1X-0.29Y0.03
G1X-0.3Y-0.03
G1X-0.26Y-0.1
G1X-0.21Y-0.16
G1X-0.16Y-0.23
G1X-0.13Y-0.31
G1X-0.09Y-0.39
G1X-0.05Y-0.48
G1X-0.02Y-0.56
G1X0.02Y-0.54
G1X0.05Y-0.47
G1X0.09Y-0.39
G1X0.13Y-0.31
G0X-0.63Y-0.21
; Layer Engrave
G1X-0.1Y0.22
G1X-0.08Y0.23
G1X-0.07Y0.25
G1X-0.05Y0.28
G1X-0.04Y0.29
G1X-0.02Y0.32
G1X-0.01Y0.33
G1X0.01Y0.35
G1X0.02Y0.32
G1X0.04Y0.3
G1X0.05Y0.27
G1X0.06Y0.26
G1X0.08Y0.23
G1X0.1Y0.21
G1X0.1Y0.19
G1X0.13Y0.16
G1X0.14Y0.15
G1X0.16Y0.12
G1X0.17Y0.1
G1X0.19Y0.08
G1X0.21Y0.05
G1X0.23Y0.03
G1X0.24Y0.01
G1X0.23Y-0.01
G1X0.22Y-0.03
G1X0.2Y-0.06
G1X0.19Y-0.07
G1X0.17Y-0.1
G1X0.16Y-0.13
G1X0.14Y-0.14
G1X0.12Y-0.17
G1X0.11Y-0.19
G1X0.09Y-0.21
G1X0.08Y-0.23
G1X0.07Y-0.26
G1X0.05Y-0.27
G1X0.04Y-0.3
G1X0.02Y-0.32
G1Y-0.34
G1Y-0.33
G1X-0.03Y-0.32
G1X-0.03Y-0.29
G1X-0.06Y-0.27
G1X-0.07Y-0.26
G1X-0.08Y-0.23
G1X-0.1Y-0.21
G1X-0.11Y-0.19
G1X-0.13Y-0.17
G1X-0.14Y-0.15
G1X-0.16Y-0.13
G1X-0.17Y-0.1
G1X-0.19Y-0.08
G1X-0.2Y-0.05
G1X-0.22Y-0.04
G1X-0.23Y-0.01
G1X-0.23Y0.01
G1X-0.21Y0.04
G1X-0.2Y0.05
G1X-0.19Y0.08
G1X-0.17Y0.1
G1X-0.15Y0.13
G1X-0.15Y0.14
G1X-0.12Y0.17
G1X-0.11Y0.19
G0X-2.46Y2.46
; Layer Engrave
G1X0.14Y0.1
G1X0.12Y0.13
G1X0.08Y0.17
G1X0.05Y0.2
G1X0.01Y0.24
G1X-0.01Y0.22
G1X-0.05Y0.19
G1X-0.08Y0.16
G1X-0.11Y0.13
G1X-0.15Y0.1
G1X-0.17Y0.07
G1X-0.21Y0.05
G1X-0.24Y0.01
G1X-0.23Y-0.01
G1X-0.21Y-0.05
G1X-0.17Y-0.07
G1X-0.15Y-0.1
G1X-0.11Y-0.13
G1X-0.08Y-0.17
G1X-0.05Y-0.18
G1X-0.02Y-0.22
G1X0.02Y-0.22
G1X0.05Y-0.2
G1X0.08Y-0.17
G1X0.12Y-0.13
G1X0.15Y-0.11
G1X0.17Y-0.08
G1X0.21Y-0.05
G1X0.23Y-0.01
G1X0.23Y0.01
G1X0.21Y0.05
G1X0.17Y0.07
G0X0.16Y-0.39
; Layer Engrave
G1Y-0.02
G1X0.25Y-0.05
G1X0.22Y-0.1
G1X0.19Y-0.13
G1X0.16Y-0.16
G1X0.13Y-0.19
G1X0.09Y-0.22
G1X0.05Y-0.24
G1X0.02Y-0.26
G1X-0.03Y-0.36
G1X-0.09Y-0.31
G1X-0.15Y-0.28
G1X-0.21Y-0.23
G1X-0.27Y-0.19
G1X-0.32Y-0.13
G1X-0.38Y-0.08
G1X-0.42Y-0.03
G1X-0.42Y0.03
G1X-0.37Y0.07
G1X-0.32Y0.14
G1X-0.27Y0.18
G1X-0.22Y0.23
G1X-0.16Y0.27
G1X-0.09Y0.32
G1X-0.03Y0.37
G1X0.02Y0.25
G1X0.05Y0.24
G1X0.1Y0.22
G1X0.14Y0.19
G1X0.16Y0.17
G1X0.19Y0.13
G1X0.21Y0.09
G1X0.22Y0.06
G1Y0.01
G1X-0.21Y0.07
G1X-0.19Y0.1
G1X-0.16Y0.13
G1X-0.14Y0.16
G1X-0.12Y0.18
G1X-0.08Y0.2
G1X-0.05Y0.22
G1X-0.01Y0.22
G1X0.03Y0.3
G1X0.08Y0.27
G1X0.15Y0.24
G1X0.21Y0.21
G1X0.25Y0.18
G1X0.3Y0.12
G1X0.33Y0.07
G1X0.38Y0.02
G1X0.39Y-0.02
G1X0.34Y-0.07
G1X0.3Y-0.12
G1X0.25Y-0.17
G1X0.21Y-0.21
G1X0.15Y-0.24
G1X0.08Y-0.27
G1X0.03Y-0.31
G1X-0.01Y-0.23
G1X-0.05Y-0.22
G1X-0.08Y-0.19
G1X-0.12Y-0.19
G1X-0.14Y-0.16
G1X-0.17Y-0.12
G1X-0.19Y-0.1
G1X-0.21Y-0.06
G0X7.25Y-0.15
; Layer Engrave
G1X0.02Y-0.54
G1X0.05Y-0.47
G1X0.09Y-0.39
G1X0.13Y-0.31
G1X0.16Y-0.24
G1X0.21Y-0.17
G1X0.25Y-0.1
G1X0.29Y-0.04
G1X0.29Y0.04
G1X0.25Y0.1
G1X0.2Y0.18
G1X0.17Y0.24
G1X0.13Y0.31
G1X0.09Y0.39
G1X0.05Y0.47
G1X0.02Y0.53
G1X-0.02Y0.56
G1X-0.05Y0.47
G1X-0.09Y0.39
G1X-0.12Y0.31
G1X-0.16Y0.23
G1X-0.2Y0.17
G1X-0.25Y0.1
G1X-0.29Y0.03
G1X-0.31Y-0.03
G1X-0.25Y-0.1
G1X-0.21Y-0.16
G1X-0.17Y-0.23
G1X-0.12Y-0.31
G1X-0.09Y-0.39
G1X-0.05Y-0.48
G1X-0.02Y-0.56
G0X-0.71Y0
; Layer Engrave
G1X0.01Y0.35
G1X0.02Y0.32
G1X0.03Y0.3
G1X0.06Y0.27
G1X0.06Y0.26
G1X0.08Y0.23
G1X0.09Y0.21
G1X0.11Y0.19
G1X0.13Y0.16
G1X0.14Y0.15
G1X0.16Y0.12
G1X0.17Y0.1
G1X0.19Y0.08
G1X0.21Y0.05
G1X0.22Y0.03
G1X0.25Y0.01
G1X0.23Y-0.01
G1X0.22Y-0.03
G1X0.2Y-0.06
G1X0.19Y-0.07
G1X0.17Y-0.1
G1X0.16Y-0.13
G1X0.14Y-0.14
G1X0.12Y-0.17
G1X0.11Y-0.19
G1X0.09Y-0.21
G1X0.08Y-0.23
G1X0.07Y-0.26
G1X0.05Y-0.27
G1X0.03Y-0.3
G1X0.03Y-0.32
G1Y-0.34
G1Y-0.33
G1X-0.03Y-0.32
G1X-0.04Y-0.29
G1X-0.05Y-0.27
G1X-0.07Y-0.26
G1X-0.08Y-0.23
G1X-0.1Y-0.21
G1X-0.11Y-0.19
G1X-0.13Y-0.17
G1X-0.15Y-0.15
G1X-0.15Y-0.13
G1X-0.17Y-0.1
G1X-0.19Y-0.08
G1X-0.2Y-0.05
G1X-0.22Y-0.04
G1X-0.23Y-0.01
G1X-0.23Y0.01
G1X-0.21Y0.04
G1X-0.2Y0.05
G1X-0.19Y0.08
G1X-0.17Y0.1
G1X-0.16Y0.13
G1X-0.14Y0.14
G1X-0.12Y0.17
G1X-0.12Y0.19
G1X-0.09Y0.22
G1X-0.08Y0.23
G1X-0.07Y0.25
G1X-0.05Y0.28
G1X-0.04Y0.29
G1X-0.02Y0.32
G1X-0.01Y0.33
G0X-0.53Y7.74
; Layer Engrave
G1X0.29Y0.04
G1X0.25Y0.1
G1X0.21Y0.18
G1X0.16Y0.24
G1X0.13Y0.31
G1X0.09Y0.39
G1X0.06Y0.47
G1X0.01Y0.53
G1X-0.01Y0.56
G1X-0.06Y0.47
G1X-0.08Y0.39
G1X-0.12Y0.31
G1X-0.16Y0.23
G1X-0.21Y0.17
G1X-0.25Y0.1
G1X-0.29Y0.03
G1X-0.3Y-0.03
G1X-0.26Y-0.1
G1X-0.21Y-0.16
G1X-0.16Y-0.23
G1X-0.13Y-0.31
G1X-0.08Y-0.39
G1X-0.06Y-0.48
G1X-0.01Y-0.56
G1X0.01Y-0.54
G1X0.06Y-0.47
G1X0.09Y-0.39
G1X0.12Y-0.31
G1X0.17Y-0.24
G1X0.2Y-0.17
G1X0.25Y-0.1
G1X0.29Y-0.04
G0X-0Y-0.57
; Layer Engrave
G1X-0.23Y0.01
G1X-0.22Y0.04
G1X-0.2Y0.05
G1X-0.18Y0.08
G1X-0.18Y0.1
G1X-0.15Y0.13
G1X-0.14Y0.14
G1X-0.13Y0.17
G1X-0.11Y0.19
G1X-0.1Y0.22
G1X-0.08Y0.23
G1X-0.07Y0.25
G1X-0.05Y0.28
G1X-0.04Y0.29
G1X-0.02Y0.32
G1X-0.01Y0.33
G1X0.01Y0.35
G1X0.02Y0.32
G1X0.04Y0.3
G1X0.05Y0.27
G1X0.06Y0.26
G1X0.08Y0.23
G1X0.1Y0.21
G1X0.11Y0.19
G1X0.12Y0.16
G1X0.14Y0.15
G1X0.16Y0.12
G1X0.17Y0.1
G1X0.2Y0.08
G1X0.2Y0.05
G1X0.23Y0.03
G1X0.24Y0.01
G1X0.24Y-0.01
G1X0.21Y-0.03
G1X0.21Y-0.06
G1X0.18Y-0.07
G1X0.18Y-0.1
G1X0.15Y-0.13
G1X0.14Y-0.14
G1X0.12Y-0.17
G1X0.11Y-0.19
G1X0.1Y-0.21
G1X0.08Y-0.23
G1X0.06Y-0.26
G1X0.05Y-0.27
G1X0.04Y-0.3
G1X0.02Y-0.32
G1X0.01Y-0.34
G1X-0.01Y-0.33
G1X-0.02Y-0.32
G1X-0.04Y-0.29
G1X-0.05Y-0.27
G1X-0.07Y-0.26
G1X-0.09Y-0.23
G1X-0.09Y-0.21
G1X-0.12Y-0.19
G1X-0.13Y-0.17
G1X-0.14Y-0.15
G1X-0.16Y-0.13
G1X-0.17Y-0.1
G1X-0.19Y-0.08
G1X-0.2Y-0.05
G1X-0.21Y-0.04
G1X-0.23Y-0.01
G0X-3.69Y1.13
; Layer Engrave
G1X0.12Y0.31
G1X0.09Y0.39
G1X0.06Y0.47
G1X0.01Y0.53
G1X-0.01Y0.56
G1X-0.05Y0.47
G1X-0.09Y0.39
G1X-0.12Y0.31
G1X-0.16Y0.23
G1X-0.21Y0.17
G1X-0.24Y0.1
G1X-0.3Y0.03
G1X-0.3Y-0.03
G1X-0.26Y-0.1
G1X-0.21Y-0.16
G1X-0.16Y-0.23
G1X-0.12Y-0.31
G1X-0.09Y-0.39
G1X-0.06Y-0.48
G1X-0.01Y-0.56
G1X0.01Y-0.54
G1X0.06Y-0.47
G1X0.09Y-0.39
G1X0.12Y-0.31
G1X0.17Y-0.24
G1X0.2Y-0.17
G1X0.25Y-0.1
G1X0.29Y-0.04
G1X0.29Y0.04
G1X0.25Y0.1
G1X0.21Y0.18
G1X0.17Y0.24
G0X0.63Y-0.21
; Layer Engrave
G1X-0.12Y-0.19
G1X-0.13Y-0.17
G1X-0.14Y-0.15
G1X-0.16Y-0.13
G1X-0.17Y-0.1
G1X-0.19Y-0.08
G1X-0.2Y-0.05
G1X-0.21Y-0.04
G1X-0.23Y-0.01
G1X-0.23Y0.01
G1X-0.22Y0.04
G1X-0.2Y0.05
G1X-0.18Y0.08
G1X-0.17Y0.1
G1X-0.16Y0.13
G1X-0.14Y0.14
G1X-0.13Y0.17
G1X-0.11Y0.19
G1X-0.1Y0.22
G1X-0.08Y0.23
G1X-0.07Y0.25
G1X-0.05Y0.28
G1X-0.04Y0.29
G1X-0.02Y0.32
G1X-0.01Y0.33
G1X0.01Y0.35
G1X0.02Y0.32
G1X0.04Y0.3
G1X0.05Y0.27
G1X0.07Y0.26
G1X0.08Y0.23
G1X0.09Y0.21
G1X0.11Y0.19
G1X0.12Y0.16
G1X0.14Y0.15
G1X0.16Y0.12
G1X0.18Y0.1
G1X0.19Y0.08
G1X0.2Y0.05
G1X0.23Y0.03
G1X0.24Y0.01
G1X0.24Y-0.01
G1X0.22Y-0.03
G1X0.2Y-0.06
G1X0.19Y-0.07
G1X0.17Y-0.1
G1X0.15Y-0.13
G1X0.14Y-0.14
G1X0.13Y-0.17
G1X0.1Y-0.19
G1X0.1Y-0.21
G1X0.08Y-0.23
G1X0.06Y-0.26
G1X0.05Y-0.27
G1X0.04Y-0.3
G1X0.02Y-0.32
G1X0.01Y-0.34
G1X-0.01Y-0.33
G1X-0.02Y-0.32
G1X-0.04Y-0.29
G1X-0.05Y-0.27
G1X-0.07Y-0.26
G1X-0.08Y-0.23
G1X-0.1Y-0.21
G0X-4.32Y-0.24
; Layer Engrave
G1Y-0.6
G1X-3.45
G1Y0.6
G1X1.4
G1Y4.23
G1X-1.24Y-0.89
G1Y0.67
G1X1.3Y0.89
G1X0.65
G1Y-4.9
G1X1.34
G0X10.87Y1.14
; Layer Engrave
G1X0.09Y-0.39
G1X0.12Y-0.31
G1X0.17Y-0.24
G1X0.2Y-0.17
G1X0.25Y-0.1
G1X0.29Y-0.04
G1X0.29Y0.04
G1X0.25Y0.1
G1X0.21Y0.18
G1X0.16Y0.24
G1X0.13Y0.31
G1X0.09Y0.39
G1X0.05Y0.47
G1X0.02Y0.53
G1X-0.01Y0.56
G1X-0.06Y0.47
G1X-0.08Y0.39
G1X-0.12Y0.31
G1X-0.16Y0.23
G1X-0.21Y0.17
G1X-0.25Y0.1
G1X-0.29Y0.03
G1X-0.3Y-0.03
G1X-0.26Y-0.1
G1X-0.21Y-0.16
G1X-0.16Y-0.23
G1X-0.13Y-0.31
G1X-0.09Y-0.39
G1X-0.05Y-0.48
G1X-0.02Y-0.56
G1X0.02Y-0.54
G1X0.06Y-0.47
G0X-0.72Y0.07
; Layer Engrave
G1X-0.04Y0.29
G1X-0.02Y0.32
G1X-0.01Y0.33
G1X0.01Y0.35
G1X0.02Y0.32
G1X0.04Y0.3
G1X0.05Y0.27
G1X0.06Y0.26
G1X0.08Y0.23
G1X0.1Y0.21
G1X0.11Y0.19
G1X0.12Y0.16
G1X0.14Y0.15
G1X0.16Y0.12
G1X0.17Y0.1
G1X0.19Y0.08
G1X0.21Y0.05
G1X0.23Y0.03
G1X0.24Y0.01
G1X0.23Y-0.01
G1X0.22Y-0.03
G1X0.21Y-0.06
G1X0.18Y-0.07
G1X0.18Y-0.1
G1X0.15Y-0.13
G1X0.14Y-0.14
G1X0.12Y-0.17
G1X0.11Y-0.19
G1X0.1Y-0.21
G1X0.08Y-0.23
G1X0.06Y-0.26
G1X0.05Y-0.27
G1X0.04Y-0.3
G1X0.02Y-0.32
G1X0.01Y-0.34
G1X-0.01Y-0.33
G1X-0.02Y-0.32
G1X-0.04Y-0.29
G1X-0.06Y-0.27
G1X-0.06Y-0.26
G1X-0.09Y-0.23
G1X-0.1Y-0.21
G1X-0.11Y-0.19
G1X-0.13Y-0.17
G1X-0.14Y-0.15
G1X-0.16Y-0.13
G1X-0.17Y-0.1
G1X-0.19Y-0.08
G1X-0.2Y-0.05
G1X-0.22Y-0.04
G1X-0.22Y-0.01
G1X-0.23Y0.01
G1X-0.22Y0.04
G1X-0.2Y0.05
G1X-0.19Y0.08
G1X-0.17Y0.1
G1X-0.15Y0.13
G1X-0.14Y0.14
G1X-0.13Y0.17
G1X-0.11Y0.19
G1X-0.1Y0.22
G1X-0.08Y0.23
G1X-0.07Y0.25
G1X-0.05Y0.28
G0X1.95Y8.68
; Layer Engrave
G1X0.29Y0.04
G1X0.24Y0.1
G1X0.21Y0.18
G1X0.17Y0.24
G1X0.12Y0.31
G1X0.09Y0.39
G1X0.06Y0.47
G1X0.02Y0.53
G1X-0.02Y0.56
G1X-0.05Y0.47
G1X-0.09Y0.39
G1X-0.12Y0.31
G1X-0.16Y0.23
G1X-0.2Y0.17
G1X-0.25Y0.1
G1X-0.3Y0.03
G1X-0.3Y-0.03
G1X-0.25Y-0.1
G1X-0.21Y-0.16
G1X-0.17Y-0.23
G1X-0.12Y-0.31
G1X-0.09Y-0.39
G1X-0.05Y-0.48
G1X-0.02Y-0.56
G1X0.02Y-0.54
G1X0.05Y-0.47
G1X0.09Y-0.39
G1X0.12Y-0.31
G1X0.17Y-0.24
G1X0.21Y-0.17
G1X0.24Y-0.1
G1X0.3Y-0.04
G0X-0.01Y-0.57
; Layer Engrave
G1X-0.23Y0.01
G1X-0.22Y0.04
G1X-0.2Y0.05
G1X-0.18Y0.08
G1X-0.17Y0.1
G1X-0.16Y0.13
G1X-0.14Y0.14
G1X-0.13Y0.17
G1X-0.11Y0.19
G1X-0.1Y0.22
G1X-0.08Y0.23
G1X-0.06Y0.25
G1X-0.06Y0.28
G1X-0.03Y0.29
G1X-0.03Y0.32
G1Y0.33
G1Y0.35
G1X0.03Y0.32
G1X0.03Y0.3
G1X0.05Y0.27
G1X0.07Y0.26
G1X0.08Y0.23
G1X0.09Y0.21
G1X0.11Y0.19
G1X0.12Y0.16
G1X0.14Y0.15
G1X0.16Y0.12
G1X0.18Y0.1
G1X0.19Y0.08
G1X0.21Y0.05
G1X0.22Y0.03
G1X0.24Y0.01
G1X0.24Y-0.01
G1X0.22Y-0.03
G1X0.2Y-0.06
G1X0.19Y-0.07
G1X0.17Y-0.1
G1X0.15Y-0.13
G1X0.14Y-0.14
G1X0.13Y-0.17
G1X0.11Y-0.19
G1X0.09Y-0.21
G1X0.08Y-0.23
G1X0.06Y-0.26
G1X0.05Y-0.27
G1X0.04Y-0.3
G1X0.02Y-0.32
G1X0.01Y-0.34
G1X-0.01Y-0.33
G1X-0.02Y-0.32
G1X-0.04Y-0.29
G1X-0.05Y-0.27
G1X-0.07Y-0.26
G1X-0.08Y-0.23
G1X-0.1Y-0.21
G1X-0.12Y-0.19
G1X-0.13Y-0.17
G1X-0.14Y-0.15
G1X-0.16Y-0.13
G1X-0.17Y-0.1
G1X-0.18Y-0.08
G1X-0.21Y-0.05
G1X-0.21Y-0.04
G1X-0.23Y-0.01
G0X-3.69Y1.13
; Layer Engrave
G1X0.12Y0.31
G1X0.1Y0.39
G1X0.05Y0.47
G1X0.02Y0.53
G1X-0.02Y0.56
G1X-0.05Y0.47
G1X-0.09Y0.39
G1X-0.12Y0.31
G1X-0.16Y0.23
G1X-0.2Y0.17
G1X-0.25Y0.1
G1X-0.3Y0.03
G1X-0.3Y-0.03
G1X-0.25Y-0.1
G1X-0.21Y-0.16
G1X-0.17Y-0.23
G1X-0.12Y-0.31
G1X-0.09Y-0.39
G1X-0.05Y-0.48
G1X-0.02Y-0.56
G1X0.02Y-0.54
G1X0.05Y-0.47
G1X0.09Y-0.39
G1X0.13Y-0.31
G1X0.16Y-0.24
G1X0.21Y-0.17
G1X0.25Y-0.1
G1X0.29Y-0.04
G1X0.29Y0.04
G1X0.25Y0.1
G1X0.2Y0.18
G1X0.17Y0.24
G0X0.63Y-0.21
; Layer Engrave
G1X-0.11Y-0.19
G1X-0.13Y-0.17
G1X-0.15Y-0.15
G1X-0.15Y-0.13
G1X-0.18Y-0.1
G1X-0.18Y-0.08
G1X-0.2Y-0.05
G1X-0.22Y-0.04
G1X-0.23Y-0.01
G1X-0.23Y0.01
G1X-0.21Y0.04
G1X-0.21Y0.05
G1X-0.18Y0.08
G1X-0.17Y0.1
G1X-0.16Y0.13
G1X-0.14Y0.14
G1X-0.13Y0.17
G1X-0.11Y0.19
G1X-0.09Y0.22
G1X-0.09Y0.23
G1X-0.06Y0.25
G1X-0.06Y0.28
G1X-0.03Y0.29
G1X-0.03Y0.32
G1Y0.33
G1Y0.35
G1X0.03Y0.32
G1X0.03Y0.3
G1X0.05Y0.27
G1X0.07Y0.26
G1X0.08Y0.23
G1X0.09Y0.21
G1X0.11Y0.19
G1X0.12Y0.16
G1X0.15Y0.15
G1X0.15Y0.12
G1X0.18Y0.1
G1X0.19Y0.08
G1X0.21Y0.05
G1X0.22Y0.03
G1X0.24Y0.01
G1X0.24Y-0.01
G1X0.22Y-0.03
G1X0.2Y-0.06
G1X0.19Y-0.07
G1X0.17Y-0.1
G1X0.16Y-0.13
G1X0.14Y-0.14
G1X0.12Y-0.17
G1X0.11Y-0.19
G1X0.09Y-0.21
G1X0.08Y-0.23
G1X0.07Y-0.26
G1X0.05Y-0.27
G1X0.03Y-0.3
G1X0.02Y-0.32
G1X0.01Y-0.34
G1X-0.01Y-0.33
G1X-0.02Y-0.32
G1X-0.04Y-0.29
G1X-0.05Y-0.27
G1X-0.07Y-0.26
G1X-0.08Y-0.23
G1X-0.1Y-0.21
G0X-5.11Y0.52
; Layer Engrave
G1X0.09Y0.39
G1X0.05Y0.47
G1X0.02Y0.53
G1X-0.02Y0.56
G1X-0.05Y0.47
G1X-0.09Y0.39
G1X-0.12Y0.31
G1X-0.16Y0.23
G1X-0.2Y0.17
G1X-0.25Y0.1
G1X-0.29Y0.03
G1X-0.31Y-0.03
G1X-0.25Y-0.1
G1X-0.21Y-0.16
G1X-0.17Y-0.23
G1X-0.12Y-0.31
G1X-0.09Y-0.39
G1X-0.05Y-0.48
G1X-0.02Y-0.56
G1X0.02Y-0.54
G1X0.05Y-0.47
G1X0.09Y-0.39
G1X0.13Y-0.31
G1X0.16Y-0.24
G1X0.21Y-0.17
G1X0.25Y-0.1
G1X0.29Y-0.04
G1X0.29Y0.04
G1X0.25Y0.1
G1X0.2Y0.18
G1X0.17Y0.24
G1X0.13Y0.31
G0X0.68Y-0.08
; Layer Engrave
G1X-0.08Y-0.23
G1X-0.1Y-0.21
G1X-0.11Y-0.19
G1X-0.13Y-0.17
G1X-0.15Y-0.15
G1X-0.15Y-0.13
G1X-0.18Y-0.1
G1X-0.18Y-0.08
G1X-0.2Y-0.05
G1X-0.22Y-0.04
G1X-0.23Y-0.01
G1X-0.23Y0.01
G1X-0.21Y0.04
G1X-0.2Y0.05
G1X-0.19Y0.08
G1X-0.17Y0.1
G1X-0.16Y0.13
G1X-0.14Y0.14
G1X-0.12Y0.17
G1X-0.12Y0.19
G1X-0.09Y0.22
G1X-0.08Y0.23
G1X-0.07Y0.25
G1X-0.05Y0.28
G1X-0.04Y0.29
G1X-0.02Y0.32
G1X-0.01Y0.33
G1X0.01Y0.35
G1X0.02Y0.32
G1X0.03Y0.3
G1X0.05Y0.27
G1X0.07Y0.26
G1X0.08Y0.23
G1X0.09Y0.21
G1X0.11Y0.19
G1X0.13Y0.16
G1X0.14Y0.15
G1X0.15Y0.12
G1X0.18Y0.1
G1X0.19Y0.08
G1X0.21Y0.05
G1X0.22Y0.03
G1X0.25Y0.01
G1X0.23Y-0.01
G1X0.22Y-0.03
G1X0.2Y-0.06
G1X0.19Y-0.07
G1X0.17Y-0.1
G1X0.16Y-0.13
G1X0.14Y-0.14
G1X0.12Y-0.17
G1X0.11Y-0.19
G1X0.09Y-0.21
G1X0.08Y-0.23
G1X0.07Y-0.26
G1X0.05Y-0.27
G1X0.03Y-0.3
G1X0.03Y-0.32
G1Y-0.34
G1X-0.01Y-0.33
G1X-0.02Y-0.32
G1X-0.04Y-0.29
G1X-0.05Y-0.27
G1X-0.07Y-0.26
G0X-4.5Y-0.68
; Layer Engrave
G1Y-0.6
G1X-3.65
G1Y0.49
G1X0.22Y0.44
G1X0.27Y0.37
G1X0.29Y0.33
G1X0.31Y0.3
G1X0.31Y0.28
G1X0.32Y0.25
G1X0.29Y0.24
G1X0.27Y0.24
G1X0.22Y0.25
G1X0.18Y0.26
G1X0.07Y0.14
G1X0.05Y0.14
G1X0.03Y0.16
G1X0.01Y0.16
G1X-0.02Y0.22
G1X-0.05Y0.19
G1X-0.08Y0.16
G1X-0.12Y0.14
G1X-0.15Y0.11
G1X-0.17Y0.07
G1X-0.19Y0.05
G1X-0.23Y0.02
G1X-0.21Y-0.02
G1X-0.2Y-0.04
G1X-0.17Y-0.08
G1X-0.16Y-0.11
G1X-0.13Y-0.13
G1X-0.1Y-0.16
G1X-0.07Y-0.18
G1X-0.04Y-0.21
G1X-0.72Y0.06
G1X0.07Y0.32
G1X0.11Y0.28
G1X0.17Y0.24
G1X0.21Y0.21
G1X0.26Y0.18
G1X0.29Y0.12
G1X0.33Y0.07
G1X0.36Y0.02
G1X0.39Y-0.02
G1X0.35Y-0.07
G1X0.29Y-0.13
G1X0.25Y-0.17
G1X0.2Y-0.21
G1X0.14Y-0.26
G1X0.08Y-0.3
G1X0.03Y-0.34
G1X-0.04Y-0.32
G1X-0.11Y-0.32
G1X-0.18Y-0.32
G1X-0.25Y-0.31
G1X-0.18Y-0.18
G1X-0.24Y-0.23
G1X-0.31Y-0.26
G1X-0.38Y-0.31
G1X-0.4Y-0.35
G1X-0.31Y-0.32
G1X-0.23Y-0.28
G1X-0.16Y-0.28
G1X2.88
G0X23.17Y18.29
; Layer Engrave
G1X0.67Y-0.01
G1X-0.87Y1.26
G1X4.24Y-0.07
G1X-0.02Y-1.4
G1X0.59Y-0.01
G1X0.06Y3.45
G1X-0.6Y0.01
G1X-0.02Y-1.34
G1X-4.91Y0.08
G1X-0.01Y-0.65
G1X0.87Y-1.32
G0X1.04Y4.89
; Layer Engrave
G1X-0.33Y0.07
G1X-0.32Y0.11
G1X-0.3Y0.16
G1X-0.16Y0.15
G1X-0.11Y0.17
G1X-0.08Y0.2
G1X-0.04Y0.2
G1X-0.01Y0.2
G1X0.04Y0.21
G1X0.07Y0.19
G1X0.11Y0.19
G1X0.18Y0.15
G1X0.2Y0.12
G1X0.22Y0.09
G1X0.23Y0.05
G1X0.66Y0.08
G1X0.66Y0.01
G1X0.65Y-0.06
G1X0.65Y-0.13
G1X0.25Y-0.08
G1X0.22Y-0.14
G1X0.18Y-0.19
G1X0.13Y-0.22
G1X0.07Y-0.28
G1X-0.01Y-0.29
G1X-0.08Y-0.27
G1X-0.14Y-0.24
G1X-0.21Y-0.19
G1X-0.26Y-0.12
G1X-0.53Y-0.12
G1X-0.53Y-0.07
G1X-0.54Y-0.01
G1X-0.53Y0.04
G1X-0.34Y0.02
G0X-0.53Y-0.58
; Layer Engrave
G1X0.37Y-0.1
G1X0.38Y-0.04
G1X0.6Y-0.05
G1X0.6Y0.02
G1X0.59Y0.08
G1X0.59Y0.15
G1X0.27Y0.12
G1X0.25Y0.16
G1X0.21Y0.2
G1X0.18Y0.23
G1X0.13Y0.26
G1X0.08Y0.28
G1X0.04Y0.29
G1X-0.02Y0.31
G1X-0.04Y0.24
G1X-0.07Y0.22
G1X-0.1Y0.22
G1X-0.13Y0.2
G1X-0.15Y0.17
G1X-0.18Y0.16
G1X-0.21Y0.12
G1X-0.22Y0.1
G1X-0.49Y0.15
G1X-0.51Y0.1
G1X-0.51Y0.05
G1X-0.52
G1X-0.41Y-0.02
G1X-0.41Y-0.06
G1X-0.39Y-0.1
G1X-0.39Y-0.15
G1X-0.21Y-0.11
G1X-0.19Y-0.15
G1X-0.16Y-0.17
G1X-0.14Y-0.19
G1X-0.1Y-0.2
G1X-0.08Y-0.23
G1X-0.04Y-0.23
G1Y-0.24
G1X-0.01Y-0.22
G1X0.03Y-0.21
G1X0.05Y-0.2
G1X0.07Y-0.2
G1X0.1Y-0.18
G1X0.12Y-0.18
G1X0.15Y-0.15
G1X0.17Y-0.14
G1X0.34Y-0.18
G1X0.36Y-0.13
G0X8.71Y-1.9
; Layer Engrave
G1X-0.07Y-0.25
G1X-0.06Y-0.4
G1Y-0.39
G1X0.07Y-0.39
G1X0.13Y-0.38
G1X0.21Y-0.32
G1X0.29Y-0.25
G1X0.33Y-0.18
G1X0.38Y-0.09
G1X0.07Y0.72
G1X-0.17Y0.03
G1X-0.16Y0.06
G1X-0.15Y0.08
G1X-0.12Y0.11
G1X-0.11Y0.13
G1X-0.09Y0.14
G1X-0.06Y0.16
G1X-0.03Y0.17
G1X-0.02Y0.21
G1X0.02Y0.21
G1X0.05Y0.2
G1X0.08Y0.19
G1X0.16Y0.18
G1X0.2Y0.13
G1X0.22Y0.07
G1X0.24Y0.02
G1X0.24Y-0.03
G1X0.22Y-0.07
G1X0.21Y-0.1
G1X0.19Y-0.15
G1X0.26Y-0.26
G1X0.25Y-0.27
G1X0.23Y-0.28
G1X0.22Y-0.3
G1X0.28Y-0.34
G1X0.3Y-0.32
G1X0.33Y-0.29
G1X0.36Y-0.25
G1X0.21Y-0.13
G1X0.22Y-0.1
G1X0.49Y-0.01
G1X0.06Y3.64
G1X-0.6Y0.01
G1X-0.04Y-2.87
G1X-0.3Y0.18
G1X-0.27Y0.22
G1X-0.25Y0.24
G1X-0.22Y0.26
G1X-0.55Y0.69
G1X-0.59Y0.65
G1X-0.27Y0.24
G1X-0.3Y0.18
G1X-0.34Y0.12
G1X-0.35Y0.06
G1X-0.27
G1X-0.25Y-0.05
G1X-0.23Y-0.1
G1X-0.21Y-0.13
G1X-0.18Y-0.17
G1X-0.15Y-0.2
G1X-0.11Y-0.23
G0X1.52Y2.65
; Layer Engrave
G1X-0.32Y0.11
G1X-0.3Y0.16
G1X-0.16Y0.15
G1X-0.11Y0.18
G1X-0.08Y0.19
G1X-0.04Y0.2
G1X-0.01Y0.21
G1X0.04Y0.2
G1X0.07Y0.2
G1X0.12Y0.18
G1X0.17Y0.15
G1X0.2Y0.13
G1X0.22Y0.08
G1X0.23Y0.05
G1X0.66Y0.08
G1X0.66Y0.01
G1X0.65Y-0.06
G1X0.65Y-0.12
G1X0.25Y-0.09
G1X0.22Y-0.14
G1X0.18Y-0.18
G1X0.14Y-0.23
G1X0.06Y-0.28
G1X-0.01Y-0.29
G1X-0.07Y-0.27
G1X-0.15Y-0.24
G1X-0.21Y-0.18
G1X-0.26Y-0.12
G1X-0.52Y-0.12
G1X-0.54Y-0.07
G1X-0.53Y-0.02
G1X-0.54Y0.04
G1X-0.34Y0.02
G1X-0.33Y0.07
G0X-0.56Y-0.51
; Layer Engrave
G1X0.36Y-0.14
G1X0.37Y-0.09
G1X0.38Y-0.05
G1X0.6Y-0.05
G1X0.6Y0.02
G1X0.59Y0.08
G1X0.59Y0.15
G1X0.27Y0.12
G1X0.25Y0.16
G1X0.21Y0.2
G1X0.18Y0.24
G1X0.13Y0.26
G1X0.08Y0.27
G1X0.04Y0.3
G1X-0.02Y0.3
G1X-0.03Y0.24
G1X-0.07Y0.23
G1X-0.1Y0.21
G1X-0.13Y0.2
G1X-0.16Y0.18
G1X-0.18Y0.15
G1X-0.2Y0.13
G1X-0.23Y0.09
G1X-0.49Y0.16
G1X-0.51Y0.1
G1X-0.51Y0.05
G1X-0.52Y-0.01
G1X-0.41Y-0.02
G1X-0.41Y-0.06
G1X-0.39Y-0.1
G1X-0.39Y-0.14
G1X-0.21Y-0.12
G1X-0.19Y-0.14
G1X-0.16Y-0.17
G1X-0.14Y-0.19
G1X-0.1Y-0.21
G1X-0.08Y-0.22
G1X-0.04Y-0.24
G1Y-0.24
G1X-0.01Y-0.22
G1X0.03Y-0.21
G1X0.05Y-0.2
G1X0.07Y-0.2
G1X0.1Y-0.18
G1X0.13Y-0.17
G1X0.14Y-0.16
G1X0.17Y-0.13
G1X0.34Y-0.18
G0X9.13Y-1.97
; Layer Engrave
G1X-0.14Y-0.31
G1X-0.07Y-0.34
G1X-0.01Y-0.34
G1X0.01Y-0.33
G1X0.06Y-0.32
G1X0.12Y-0.31
G1X0.16Y-0.28
G1X0.22Y-0.23
G1X0.25Y-0.17
G1X0.28Y-0.12
G1X0.3Y-0.06
G1X0.07Y0.7
G1X-0.17Y0.03
G1X-0.16Y0.06
G1X-0.15Y0.08
G1X-0.12Y0.11
G1X-0.11Y0.13
G1X-0.09Y0.14
G1X-0.06Y0.16
G1X-0.03Y0.17
G1X-0.01Y0.22
G1X0.02Y0.22
G1X0.05Y0.21
G1X0.09Y0.2
G1X0.16Y0.18
G1X0.19Y0.13
G1X0.23Y0.07
G1X0.24Y0.01
G1X0.15Y-0.01
G1X0.15Y-0.04
G1X0.14Y-0.06
G1X0.12Y-0.09
G1X0.11Y-0.1
G1X0.09Y-0.13
G1X0.07Y-0.13
G1X0.04Y-0.15
G1X0.05Y-0.45
G1Y-0.45
G1X0.61Y-0.01
G1Y0.49
G1X0.08Y0.48
G1X0.06Y0.21
G1X0.11Y0.19
G1X0.15Y0.15
G1X0.18Y0.12
G1X0.31Y0.09
G1X0.31Y-0.02
G1X0.29Y-0.1
G1X0.26Y-0.2
G1X0.11Y-0.19
G1X0.08Y-0.21
G1X0.05Y-0.21
G1X0.01Y-0.22
G1X-0.01Y-0.22
G1X-0.05Y-0.21
G1X-0.08Y-0.21
G1X-0.12Y-0.19
G1X-0.15Y-0.14
G1X-0.18Y-0.11
G1X-0.2Y-0.08
G1X-0.21Y-0.03
G1X0.06Y-0.73
G1X0.29Y0.05
G1X0.28Y0.1
G1X0.24Y0.14
G1X0.22Y0.18
G1X0.18Y0.22
G1X0.14Y0.25
G1X0.1Y0.28
G1X0.04Y0.29
G1X0.03Y0.3
G1Y0.31
G1X-0.03Y0.36
G1X-0.1Y0.33
G1X-0.15Y0.32
G1X-0.22Y0.28
G1X-0.19Y0.14
G1X-0.21Y0.11
G1X-0.22Y0.08
G1X-0.23Y0.05
G1X-0.23Y0.01
G1X-0.23Y-0.03
G1X-0.23Y-0.06
G1X-0.22Y-0.1
G1X-0.25Y-0.21
G1X-0.18Y-0.27
G1X-0.13Y-0.3
G1X-0.06Y-0.32
G1X-0.01
G1X-0.06Y0.24
G1X-0.09Y0.23
G1X-0.13Y0.21
G1X-0.16Y0.19
G1X-0.23Y0.15
G1X-0.24Y0.1
G1X-0.26Y0.05
G1X-0.26Y0.01
G1X-0.26Y-0.04
G1X-0.24Y-0.09
G1X-0.23Y-0.14
G1X-0.21Y-0.18
G1X-0.18Y-0.29
G0X1.43Y2.52
; Layer Engrave
G1X-0.32Y0.11
G1X-0.3Y0.16
G1X-0.15Y0.15
G1X-0.12Y0.18
G1X-0.08Y0.19
G1X-0.04Y0.2
G1Y0.2
G1X0.03Y0.21
G1X0.07Y0.19
G1X0.12Y0.19
G1X0.18Y0.15
G1X0.2Y0.12
G1X0.21Y0.09
G1X0.23Y0.05
G1X0.66Y0.08
G1X0.66Y0.01
G1X0.66Y-0.06
G1X0.64Y-0.12
G1X0.25Y-0.09
G1X0.22Y-0.14
G1X0.18Y-0.18
G1X0.14Y-0.23
G1X0.06Y-0.28
G1Y-0.29
G1X-0.08Y-0.27
G1X-0.15Y-0.24
G1X-0.21Y-0.19
G1X-0.26Y-0.12
G1X-0.52Y-0.12
G1X-0.53Y-0.06
G1X-0.54Y-0.02
G1X-0.54Y0.04
G1X-0.34Y0.02
G1X-0.33Y0.07
G0X-0.56Y-0.51
; Layer Engrave
G1X0.36Y-0.14
G1X0.37Y-0.09
G1X0.38Y-0.05
G1X0.6Y-0.05
G1X0.6Y0.02
G1X0.6Y0.08
G1X0.58Y0.15
G1X0.28Y0.12
G1X0.24Y0.16
G1X0.22Y0.2
G1X0.17Y0.23
G1X0.13Y0.26
G1X0.09Y0.28
G1X0.03Y0.29
G1X-0.01Y0.31
G1X-0.04Y0.24
G1X-0.07Y0.23
G1X-0.1Y0.21
G1X-0.13Y0.2
G1X-0.16Y0.17
G1X-0.18Y0.16
G1X-0.2Y0.12
G1X-0.22Y0.1
G1X-0.5Y0.15
G1X-0.51Y0.11
G1X-0.51Y0.04
G1X-0.52
G1X-0.41Y-0.02
G1X-0.4Y-0.06
G1X-0.4Y-0.1
G1X-0.38Y-0.14
G1X-0.22Y-0.12
G1X-0.18Y-0.14
G1X-0.17Y-0.17
G1X-0.13Y-0.2
G1X-0.11Y-0.2
G1X-0.07Y-0.23
G1X-0.04Y-0.23
G1X-0.01Y-0.24
G1Y-0.22
G1X0.02Y-0.21
G1X0.05Y-0.2
G1X0.07Y-0.2
G1X0.1Y-0.18
G1X0.13Y-0.17
G1X0.14Y-0.16
G1X0.17Y-0.13
G1X0.34Y-0.18
G0X9.56Y1.36
; Layer Engrave
G1X-0.04Y0.2
G1X-0.01Y0.2
G1X0.04Y0.21
G1X0.07Y0.2
G1X0.11Y0.18
G1X0.18Y0.15
G1X0.2Y0.13
G1X0.22Y0.08
G1X0.23Y0.05
G1X0.66Y0.08
G1X0.66Y0.01
G1X0.65Y-0.06
G1X0.65Y-0.12
G1X0.25Y-0.09
G1X0.22Y-0.14
G1X0.18Y-0.18
G1X0.13Y-0.23
G1X0.07Y-0.28
G1X-0.01Y-0.29
G1X-0.08Y-0.27
G1X-0.14Y-0.24
G1X-0.21Y-0.18
G1X-0.26Y-0.13
G1X-0.53Y-0.12
G1X-0.53Y-0.06
G1X-0.54Y-0.02
G1X-0.53Y0.04
G1X-0.34Y0.02
G1X-0.33Y0.07
G1X-0.32Y0.11
G1X-0.3Y0.16
G1X-0.16Y0.15
G1X-0.11Y0.18
G1X-0.08Y0.19
G0X-0.59Y-0.08
; Layer Engrave
G1X0.05Y-0.2
G1X0.07Y-0.2
G1X0.1Y-0.18
G1X0.12Y-0.17
G1X0.15Y-0.16
G1X0.17Y-0.13
G1X0.34Y-0.18
G1X0.36Y-0.14
G1X0.37Y-0.09
G1X0.38Y-0.05
G1X0.6Y-0.05
G1X0.6Y0.02
G1X0.59Y0.08
G1X0.59Y0.15
G1X0.27Y0.12
G1X0.25Y0.16
G1X0.21Y0.2
G1X0.18Y0.24
G1X0.13Y0.25
G1X0.08Y0.28
G1X0.04Y0.3
G1X-0.02Y0.3
G1X-0.04Y0.24
G1X-0.07Y0.23
G1X-0.1Y0.21
G1X-0.13Y0.2
G1X-0.15Y0.18
G1X-0.18Y0.15
G1X-0.21Y0.13
G1X-0.22Y0.09
G1X-0.49Y0.16
G1X-0.51Y0.1
G1X-0.51Y0.05
G1X-0.52Y-0.01
G1X-0.41Y-0.02
G1X-0.41Y-0.06
G1X-0.39Y-0.1
G1X-0.39Y-0.14
G1X-0.21Y-0.12
G1X-0.19Y-0.14
G1X-0.16Y-0.17
G1X-0.14Y-0.19
G1X-0.1Y-0.21
G1X-0.08Y-0.22
G1X-0.04Y-0.24
G1Y-0.24
G1X-0.01Y-0.22
G1X0.03Y-0.21
G0X0.79Y-3.65
; Layer Engrave
G1X2.9Y-0.05
G1X-0.03Y-1.94
G1X-0.17Y0.14
G1X-0.19Y0.13
G1X-1.07Y0.77
G1X-1.08Y0.74
G1X-0.18Y0.11
G1X-0.18Y0.1
G0X-0.8Y-0.07
; Layer Engrave
G1X3.68Y-2.57
G1X0.54Y-0.01
G1X0.04Y2.59
G1X1.25Y-0.02
G1X0.01Y0.67
G1X-1.25Y0.02
G1X0.01Y0.77
G1X-0.55Y0.01
G1X-0.02Y-0.78
G1X-3.69Y0.06
G1X-0.02Y-0.74
G0X10.03Y1.03
; Layer Engrave
G1X-0.05Y-3.13
G1X2.95Y-0.23
G1X0.02Y0.68
G1X-0.15Y0.19
G1X-0.11Y0.21
G1X-0.08Y0.21
G1X-0.04Y0.23
G1X-0.01Y0.22
G1X0.03Y0.23
G1X0.07Y0.22
G1X0.1Y0.22
G1X0.19Y0.21
G1X0.24Y0.16
G1X0.27Y0.09
G1X0.29Y0.02
G1X0.25Y-0.02
G1X0.24Y-0.06
G1X0.23Y-0.11
G1X0.21Y-0.15
G1X0.17Y-0.24
G1X0.12Y-0.28
G1X0.04Y-0.29
G1X-0.02Y-0.3
G1X-0.03Y-0.16
G1X-0.05Y-0.16
G1X-0.08Y-0.14
G1X-0.1Y-0.13
G1X-0.11Y-0.11
G1X-0.14Y-0.09
G1X-0.15Y-0.07
G1X-0.16Y-0.05
G1X0.07Y-0.71
G1X0.23Y0.05
G1X0.2Y0.08
G1X0.19Y0.11
G1X0.18Y0.13
G1X0.15Y0.16
G1X0.12Y0.18
G1X0.1Y0.2
G1X0.08Y0.21
G1X0.08Y0.46
G1X0.01Y0.46
G1X-0.02Y0.24
G1X-0.04Y0.23
G1X-0.08Y0.22
G1X-0.1Y0.2
G1X-0.13Y0.2
G1X-0.15Y0.17
G1X-0.18Y0.15
G1X-0.2Y0.13
G1X-0.23Y0.11
G1X-0.25Y0.07
G1X-0.24Y0.04
G1X-0.25Y0.01
G1X-0.25Y-0.02
G1X-0.24Y-0.05
G1X-0.24Y-0.09
G1X-0.23Y-0.11
G1X-0.18Y-0.13
G1X-0.15Y-0.16
G1X-0.14Y-0.17
G1X-0.11Y-0.18
G1X-0.08Y-0.2
G1X-0.06Y-0.21
G1X-0.03Y-0.22
G1Y-0.22
G1Y-0.31
G1X0.06Y-0.29
G1X0.11Y-0.28
G1X0.16Y-0.26
G1X-1.75Y0.13
G1X0.04Y2.49
G1X-0.59Y0.01
G0X1.54Y1.91
; Layer Engrave
G1X-0.32Y0.12
G1X-0.3Y0.15
G1X-0.15Y0.15
G1X-0.12Y0.18
G1X-0.08Y0.19
G1X-0.04Y0.2
G1Y0.21
G1X0.03Y0.2
G1X0.07Y0.2
G1X0.12Y0.18
G1X0.18Y0.16
G1X0.2Y0.12
G1X0.21Y0.08
G1X0.24Y0.05
G1X0.65Y0.08
G1X0.66Y0.01
G1X0.66Y-0.05
G1X0.65Y-0.13
G1X0.24Y-0.09
G1X0.22Y-0.14
G1X0.18Y-0.18
G1X0.14Y-0.22
G1X0.06Y-0.29
G1Y-0.29
G1X-0.08Y-0.27
G1X-0.15Y-0.24
G1X-0.21Y-0.18
G1X-0.26Y-0.12
G1X-0.52Y-0.12
G1X-0.53Y-0.07
G1X-0.54Y-0.02
G1X-0.54Y0.04
G1X-0.34Y0.02
G1X-0.33Y0.07
G0X-0.56Y-0.51
; Layer Engrave
G1X0.36Y-0.14
G1X0.37Y-0.09
G1X0.39Y-0.05
G1X0.59Y-0.05
G1X0.6Y0.02
G1X0.6Y0.08
G1X0.58Y0.15
G1X0.28Y0.12
G1X0.24Y0.17
G1X0.22Y0.2
G1X0.17Y0.23
G1X0.13Y0.26
G1X0.09Y0.28
G1X0.03Y0.29
G1X-0.01Y0.3
G1X-0.04Y0.24
G1X-0.07Y0.23
G1X-0.1Y0.21
G1X-0.13Y0.2
G1X-0.16Y0.18
G1X-0.18Y0.15
G1X-0.2Y0.13
G1X-0.22Y0.1
G1X-0.5Y0.15
G1X-0.5Y0.1
G1X-0.52Y0.05
G1X-0.52Y-0.01
G1X-0.41Y-0.02
G1X-0.4Y-0.06
G1X-0.4Y-0.1
G1X-0.38Y-0.14
G1X-0.21Y-0.12
G1X-0.19Y-0.14
G1X-0.17Y-0.17
G1X-0.13Y-0.19
G1X-0.11Y-0.21
G1X-0.07Y-0.22
G1X-0.04Y-0.24
G1X-0.01Y-0.24
G1Y-0.21
G1X0.02Y-0.22
G1X0.05Y-0.2
G1X0.08Y-0.2
G1X0.1Y-0.18
G1X0.12Y-0.17
G1X0.14Y-0.15
G1X0.17Y-0.14
G1X0.34Y-0.18
G0X9.62Y1.25
; Layer Engrave
G1X-0.04Y0.2
G1Y0.21
G1X0.03Y0.2
G1X0.08Y0.2
G1X0.11Y0.18
G1X0.18Y0.15
G1X0.2Y0.13
G1X0.22Y0.08
G1X0.23Y0.05
G1X0.65Y0.08
G1X0.66Y0.01
G1X0.66Y-0.06
G1X0.65Y-0.12
G1X0.24Y-0.09
G1X0.22Y-0.14
G1X0.18Y-0.18
G1X0.14Y-0.23
G1X0.06Y-0.28
G1Y-0.29
G1X-0.08Y-0.27
G1X-0.15Y-0.24
G1X-0.21Y-0.18
G1X-0.25Y-0.12
G1X-0.53Y-0.12
G1X-0.53Y-0.07
G1X-0.54Y-0.02
G1X-0.54Y0.04
G1X-0.34Y0.02
G1X-0.33Y0.07
G1X-0.32Y0.11
G1X-0.3Y0.16
G1X-0.15Y0.15
G1X-0.12Y0.18
G1X-0.08Y0.19
G0X-0.59Y-0.08
; Layer Engrave
G1X0.05Y-0.2
G1X0.08Y-0.2
G1X0.1Y-0.18
G1X0.12Y-0.17
G1X0.15Y-0.16
G1X0.16Y-0.13
G1X0.34Y-0.18
G1X0.36Y-0.14
G1X0.37Y-0.09
G1X0.39Y-0.05
G1X0.6Y-0.05
G1X0.6Y0.02
G1X0.59Y0.08
G1X0.58Y0.15
G1X0.28Y0.12
G1X0.25Y0.16
G1X0.21Y0.2
G1X0.17Y0.24
G1X0.13Y0.26
G1X0.09Y0.27
G1X0.03Y0.3
G1X-0.01Y0.3
G1X-0.04Y0.24
G1X-0.07Y0.23
G1X-0.1Y0.21
G1X-0.13Y0.2
G1X-0.16Y0.18
G1X-0.18Y0.15
G1X-0.2Y0.13
G1X-0.22Y0.09
G1X-0.5Y0.16
G1X-0.5Y0.1
G1X-0.52Y0.05
G1X-0.52Y-0.01
G1X-0.41Y-0.02
G1X-0.4Y-0.06
G1X-0.4Y-0.1
G1X-0.38Y-0.14
G1X-0.21Y-0.12
G1X-0.19Y-0.14
G1X-0.16Y-0.17
G1X-0.14Y-0.19
G1X-0.11Y-0.21
G1X-0.07Y-0.22
G1X-0.04Y-0.24
G1X-0.01Y-0.24
G1Y-0.22
G1X0.02Y-0.21
G0X3.06Y-3.21
; Layer Engrave
G1X0.19Y0.07
G1X0.21Y0.04
G1X0.26Y0.01
G1X0.27Y-0.02
G1X0.26Y-0.06
G1X0.24Y-0.1
G1X0.23Y-0.16
G1X0.17Y-0.23
G1X0.09Y-0.26
G1X0.03Y-0.28
G1X-0.03Y-0.23
G1X-0.13Y-0.28
G1X-0.2Y-0.23
G1X-0.24Y-0.18
G1X-0.29Y-0.1
G1X-0.25Y-0.06
G1X-0.26Y-0.02
G1X-0.26Y0.02
G1X-0.26Y0.07
G1X-0.27Y0.17
G1X-0.2Y0.24
G1X-0.12Y0.3
G1X-0.02Y0.32
G1X0.01Y0.2
G1X0.05Y0.2
G1X0.09Y0.18
G1X0.12Y0.16
G1X0.14Y0.13
G1X0.17Y0.1
G0X-0.69Y0.34
; Layer Engrave
G1X-0.13Y-0.16
G1X-0.11Y-0.17
G1X-0.09Y-0.19
G1X-0.06Y-0.2
G1X-0.03Y-0.21
G1X-0.01Y-0.21
G1Y-0.2
G1X0.03Y-0.2
G1X0.05Y-0.19
G1X0.08Y-0.18
G1X0.1Y-0.17
G1X0.13Y-0.15
G1X0.15Y-0.14
G1X0.16Y-0.11
G1X-0.37
G1X-0.38Y0.05
G1X-0.36Y0.09
G1X-0.36Y0.13
G1X-0.18Y0.1
G1X-0.17Y0.12
G1X-0.13Y0.15
G1X-0.1Y0.17
G1X-0.07Y0.19
G1X-0.04Y0.2
G1Y0.2
G1X0.05Y0.21
G1X0.1Y0.21
G1X0.14Y0.16
G1X0.19Y0.13
G1X0.21Y0.08
G1X-0.11Y0.67
G1X-0.22Y-0.06
G1X-0.21Y-0.1
G1X-0.18Y-0.13
G1X-0.16Y-0.15
G1X-0.14Y-0.18
G1X-0.1Y-0.2
G1X-0.08Y-0.21
G1X-0.04Y-0.23
G1X-0.02Y-0.34
G1X0.03Y-0.34
G1X0.1Y-0.32
G1X0.15Y-0.31
G1X0.29Y-0.3
G1X0.33Y-0.25
G1X0.37Y-0.18
G1X0.4Y-0.12
G1X0.66Y-0.12
G1X0.68Y-0.03
G1X0.67Y0.05
G1X0.66Y0.13
G1X0.2Y0.06
G1X0.19Y0.09
G1X0.18Y0.1
G1X0.17Y0.13
G1X0.15Y0.15
G1X0.13Y0.16
G1X0.11Y0.18
G1X0.09Y0.19
G1X0.06Y0.21
G1X0.03Y0.21
G1X0.02Y0.21
G1X-0.01Y0.21
G1X-0.03Y0.29
G1X-0.09Y0.28
G1X-0.13Y0.25
G1X-0.18Y0.23
G1X-0.21Y0.19
G1X-0.24Y0.16
G1X-0.26Y0.11
G1X-0.3Y0.06
G1X-0.36Y0.04
G1X-0.37Y-0.02
G1X-0.36Y-0.08
G1X-0.34Y-0.14
G1X-0.18Y-0.12
G1X-0.15Y-0.14
G0X7.62Y0.48
; Layer Engrave
G1X-0.05Y-3.64
G1X0.59Y-0.01
G1X0.05Y2.96
G1X0.63Y-0.44
G1X0.65Y-0.41
G1X0.68Y-0.36
G1X0.7Y-0.33
G1X0.53Y-0.19
G1X0.55Y-0.15
G1X0.57Y-0.1
G1X0.56Y-0.04
G1X0.02Y0.73
G1X-0.38Y0.02
G1X-0.83Y0.13
G1X-0.81Y0.22
G1X-0.77Y0.31
G1X-0.74Y0.41
G1X-0.7Y0.43
G1X-0.68Y0.45
G1X-0.57Y0.01
G0X1.22Y1.77
; Layer Engrave
G1X-0.3Y0.16
G1X-0.15Y0.15
G1X-0.12Y0.18
G1X-0.08Y0.19
G1X-0.04Y0.2
G1Y0.2
G1X0.03Y0.21
G1X0.08Y0.19
G1X0.11Y0.19
G1X0.18Y0.15
G1X0.2Y0.12
G1X0.22Y0.09
G1X0.23Y0.05
G1X0.65Y0.08
G1X0.66Y0.01
G1X0.66Y-0.06
G1X0.65Y-0.12
G1X0.24Y-0.09
G1X0.22Y-0.14
G1X0.18Y-0.18
G1X0.14Y-0.23
G1X0.07Y-0.28
G1X-0.01Y-0.29
G1X-0.08Y-0.27
G1X-0.15Y-0.24
G1X-0.21Y-0.19
G1X-0.25Y-0.12
G1X-0.53Y-0.12
G1X-0.53Y-0.06
G1X-0.54Y-0.02
G1X-0.54Y0.04
G1X-0.33Y0.02
G1X-0.34Y0.07
G1X-0.32Y0.11
G0X-0.74Y-0.31
; Layer Engrave
G1X0.16Y-0.13
G1X0.34Y-0.18
G1X0.36Y-0.14
G1X0.38Y-0.09
G1X0.38Y-0.05
G1X0.6Y-0.05
G1X0.6Y0.02
G1X0.59Y0.08
G1X0.58Y0.15
G1X0.28Y0.12
G1X0.25Y0.16
G1X0.21Y0.2
G1X0.17Y0.23
G1X0.13Y0.26
G1X0.09Y0.28
G1X0.03Y0.29
G1X-0.01Y0.31
G1X-0.04Y0.24
G1X-0.07Y0.23
G1X-0.1Y0.21
G1X-0.13Y0.2
G1X-0.16Y0.17
G1X-0.18Y0.16
G1X-0.2Y0.12
G1X-0.22Y0.1
G1X-0.5Y0.15
G1X-0.5Y0.11
G1X-0.52Y0.04
G1X-0.52
G1X-0.41Y-0.02
G1X-0.4Y-0.06
G1X-0.4Y-0.1
G1X-0.38Y-0.14
G1X-0.21Y-0.12
G1X-0.19Y-0.14
G1X-0.16Y-0.17
G1X-0.14Y-0.19
G1X-0.11Y-0.21
G1X-0.07Y-0.23
G1X-0.04Y-0.23
G1X-0.01Y-0.24
G1Y-0.22
G1X0.02Y-0.21
G1X0.05Y-0.2
G1X0.08Y-0.2
G1X0.1Y-0.18
G1X0.12Y-0.17
G1X0.15Y-0.16
M107
G1S0
M5
G90
; return to user-defined finish pos
G0 X0 Y0
M2

